/* XPM */
static char *d29841f2fa3e46e5f61cb731444b4d68AvgvFXG3SlVgcSII[] = {
/* columns rows colors chars-per-pixel */
"64 64 253 2 ",
"   c #0C0503",
".  c #0D0A04",
"X  c #070706",
"o  c #110604",
"O  c #130A05",
"+  c #150B0A",
"@  c #1A0E0C",
"#  c #1B0E06",
"$  c #1C120C",
"%  c #17120C",
"&  c #1D1412",
"*  c #1A1815",
"=  c #0D0C14",
"-  c #23140C",
";  c #23190D",
":  c #2D1C0D",
">  c #27150A",
",  c #351B0E",
"<  c #211513",
"1  c #241A14",
"2  c #2B1D13",
"3  c #241B19",
"4  c #2A1E1C",
"5  c #321D12",
"6  c #361A13",
"7  c #220D07",
"8  c #2C241C",
"9  c #2C231A",
"0  c #342315",
"q  c #33251B",
"w  c #34291E",
"e  c #3C2B1B",
"r  c #3B2516",
"t  c #3C240E",
"y  c #2D2523",
"u  c #342B23",
"i  c #3B2D23",
"p  c #362A28",
"a  c #3B3226",
"s  c #3C332B",
"d  c #38332A",
"f  c #393534",
"g  c #442C15",
"h  c #452B18",
"j  c #4C331B",
"k  c #46321B",
"l  c #52351C",
"z  c #573A1E",
"x  c #522E1E",
"c  c #432D23",
"v  c #4C2E23",
"b  c #433224",
"n  c #4A3425",
"m  c #43352B",
"M  c #453A2D",
"N  c #4C3B2C",
"B  c #4B3827",
"V  c #543C23",
"C  c #5A3D24",
"Z  c #54392A",
"A  c #443C32",
"S  c #4B3D34",
"D  c #433A39",
"F  c #553E35",
"G  c #502D2B",
"H  c #613E25",
"J  c #461A1A",
"K  c #54432D",
"L  c #5C442A",
"P  c #4B4235",
"I  c #4C443B",
"U  c #46423A",
"Y  c #544334",
"T  c #5B4534",
"R  c #5D4B35",
"E  c #53453B",
"W  c #53493D",
"Q  c #5B4B3C",
"!  c #58473A",
"~  c #5F503C",
"^  c #61452D",
"/  c #634C34",
"(  c #644A37",
")  c #64533B",
"_  c #69543A",
"`  c #71573C",
"'  c #3F3F49",
"]  c #3E474E",
"[  c #554C42",
"{  c #5C4D42",
"}  c #554844",
"|  c #5D5244",
" . c #5C544C",
".. c #5B564D",
"X. c #5C5755",
"o. c #4D4947",
"O. c #634D44",
"+. c #635344",
"@. c #63554B",
"#. c #655A4D",
"$. c #6A5B4D",
"%. c #6B5746",
"&. c #735C48",
"*. c #645B53",
"=. c #6B5E53",
"-. c #6A5E5B",
";. c #665957",
":. c #715E54",
">. c #76634C",
",. c #6C6155",
"<. c #6D635B",
"1. c #69635A",
"2. c #726254",
"3. c #72655A",
"4. c #74695C",
"5. c #7B6B5C",
"6. c #7B6856",
"7. c #746957",
"8. c #6C6664",
"9. c #746B63",
"0. c #7B6D62",
"q. c #746A67",
"w. c #7B7164",
"e. c #7C746C",
"r. c #7E796B",
"t. c #7C7472",
"y. c #7C7877",
"u. c #636770",
"i. c #826C5B",
"p. c #83725D",
"a. c #95705A",
"s. c #816E63",
"d. c #8A6E60",
"f. c #827364",
"g. c #82746B",
"h. c #847A6D",
"j. c #8B7C6D",
"k. c #8A7669",
"l. c #977B69",
"z. c #847B73",
"x. c #8A7C73",
"c. c #847C7A",
"v. c #857976",
"b. c #937E74",
"n. c #A57B63",
"m. c #8B8374",
"M. c #8C837B",
"N. c #89837C",
"B. c #938274",
"V. c #938B7D",
"C. c #998779",
"Z. c #90806A",
"A. c #A88B77",
"S. c #B18C74",
"D. c #B6947A",
"F. c #AA8C73",
"G. c #7B7E83",
"H. c #867D86",
"J. c #8C8887",
"K. c #948C83",
"L. c #9B8D83",
"P. c #958C8A",
"I. c #9A9286",
"U. c #9C938B",
"Y. c #97938A",
"T. c #9B9493",
"R. c #9B9695",
"E. c #8B8B92",
"W. c #A2958B",
"Q. c #AC9B8C",
"!. c #A49788",
"~. c #BC9D84",
"^. c #B59B89",
"/. c #A39C92",
"(. c #AA9D94",
"). c #A39A99",
"_. c #B59E90",
"`. c #A48F82",
"'. c #ACA395",
"]. c #ACA39B",
"[. c #A8A59A",
"{. c #B4AA9B",
"}. c #B8A697",
"|. c #BAA892",
" X c #9B9DA7",
".X c #A49BA4",
"XX c #9FA2A7",
"oX c #A9A7A8",
"OX c #B4ACA2",
"+X c #B8ACA6",
"@X c #BBB3A5",
"#X c #BDB4AA",
"$X c #BEB9AB",
"%X c #B7B4A9",
"&X c #AAABB7",
"*X c #BBB5B4",
"=X c #B9B8B7",
"-X c #B3ADB4",
";X c #9EA092",
":X c #C5A58B",
">X c #C5AA94",
",X c #C4AB9B",
"<X c #C7AA95",
"1X c #CEB29C",
"2X c #CAB099",
"3X c #D2B59C",
"4X c #C3AFA5",
"5X c #C4B2A4",
"6X c #CCB4A4",
"7X c #C1B5AA",
"8X c #C2BBAC",
"9X c #CCB9A9",
"0X c #D4BBA7",
"qX c #C4BCB2",
"wX c #C8BCB6",
"eX c #CEB9B0",
"rX c #C19F86",
"tX c #BEC1B4",
"yX c #C8C2AE",
"uX c #C6C1B4",
"iX c #CAC4B4",
"pX c #CDC8B5",
"aX c #C3C3BD",
"sX c #CCC4BA",
"dX c #CDC9BD",
"fX c #D2CCBB",
"gX c #D3C6B8",
"hX c #D6D1BD",
"jX c #DCC1AC",
"kX c #E3C8B9",
"lX c #B8BAC6",
"zX c #B5B8CC",
"xX c #C3BEC5",
"cX c #BDC5D6",
"vX c #BDC4CD",
"bX c #CCCBCB",
"nX c #CAC6C4",
"mX c #D4CDC2",
"MX c #D7CDC7",
"NX c #D5D1C4",
"BX c #DAD3C2",
"VX c #D9D5CB",
"CX c #C8CAD7",
"ZX c #D5D9D4",
"AX c #D0D1D0",
"SX c #E1DBCC",
"DX c #DCE2DD",
"FX c #E8E3D2",
"GX c #D7D7E4",
"HX c #CDD3EB",
"JX c #DDE2E8",
"KX c #E3E8E5",
"LX c #E9F2F3",
/* pixels */
"bXbXAXbXAXJXLXLXAXtXnXAXAXDXDX=XAXNX%X{.+X].(.'./.'.qXsXfXfXmXmXNXsXmXsXMXmXsXiXiXmXVXVXVXVXmXBXfXpXfXmXfXNXhXhXfXfXhXhXfXfXfXdX",
"aXbXnXnXbXKXLXKXtXZXKXLXLXLXLXLXKXVXtXOXOXY./.(.OX$X%XqXsXdXdXwXwXwXVXdXgXuX8X#XuXNXVXFXVXfXfXmXpXfXiXBXBXBXSXfXfXfXfXpXfXfXhXfX",
").oXaX=XaXDXJXbXtXZXZXDXDXDXKXKXKXZX$X[.U.V./.+X8XqX8X#X8XuXdX$X#XdXSXgXuX8X@X].fXMXNXVXmXuXmXBXfXpXpXhXfXfXBXhXfXpXiXuXfXhXfXBX",
"[.y.J.*X=XnXAXaXaXAXVXZXZXDXDXDXKXbXqX/.z.e.L.K.V.{.{.{.#XsXsXsXMXNXVXsXuXiX]./.uXMXMXBXpXfXFXVXNXuXiX8X8XpXfXfXpXiXiXyXiX8XyXBX",
"%X..U [ t.R.*X=XdXdXNXZXZXDXKXZXKXnXOX!.w.0.w.4.@.C.D.!.#XdXuXuXVXBXsX8X#X@XI.'.uXNXMXMXBXBXBX7X{.}.Q.Q.@X8X8XyXiXyXpXpXyX8XiXBX",
"oX8.* % & * o./.sXqXtXaXAXAXZXZXDXaXI.C.w.2.@.! N >.a.A.@XuXOXqXVXNXuX].].].'.W.@XMXMXmXgX7X}.C.k.p.i.B.}.qX8XyXyXpXfXfXpXfXBXhX",
"%Xy.* . O O O % [ OXqX=XaXnXAXZXDXDX/.5.6.$.Q N r ^ _ Z.@X8X{.8XuXsX@X{.sXwX@X(.'.uXmXwX}.`.j.6.2.k.C.!.}.#X$X8XyXpXBXhXfXpXiX8X",
"=XE.o.* .   . . O * 9.*X*X*XaXAXDXDX%Xw.%.! N b > j L p.{.@X'.7X+X8XqX#XOX*XqX7XOXOX7X}.C.k.6.5.j.x.j.C.}.7X$XiXfXfXfX8XpXiX8X$X",
"=X&XJ.u.f * % . . . . d r.[.{.mXZXVXuXg.+.b 0 5 # , j C.7X@X(.{.@X@X@XqXqX}.OXOX{.}.}.C.j.s.i.s.0.f.j.C.].@X$XfXpXpX8X'.!.{.'.7X",
"=XoXE.G.y.X.f y % O O . % A 9.K.uX%XaX#X{ N $     > k !.{.!.{.}.}.7XqX7X5X_.Q.Q.'._.B.s.i.s.b.L.k.B.j.B.Q.@X7X$X8XpX@XL.C.'.'.'.",
"[.[.J.u.X.X...U d 8 * & & < & m 4.I.uXuX[.I 3   X # ! {.!.'.}.Q.Q.5X7X}.C.j.A.!.}.C.j.j.x./.U.0.4.=.2.k.`.{.8XpXpXyX{.pX'./.@X{.",
"T.R.Y.y.o.o.o.X.X.o.y 3 8 u 9 # 9 W V.OX#XOXs   X o s.L.B.Q.Q.C.B.`.}.C.i.l.C.Q.j.f.v.P.c.e.0.$.F F _ k.Q.5XyXfXSX'.(.@XdX@XuXfX",
"I.I.K.Y.oXy.;.-.q.8.X.U d s s & ; s S r.U.U.K.a o 7 6.x.j.(.C.j.5.$.p.6.6.l.C.5.:.9.c.N.t.9.O.Z v Z &.B.@X7XdXdXmX$X(.I.8XpXiXuX",
"V.K.K.K.oX-Xc.8.q.8.X.8.8.X...d 9 i m A W [ 0.G J J 6 n F ! Q Q +.! R _ %.6.+.E  .9.t.8.{ @.:.%.( ( &.`.'.8XpXpXfXuXOXOXfXdXuXiX",
"z.K.V.K.J.oXT.c.y.y.y.t.q.q.*.} u q P i ; e c 6 6 - < 3 8 w i m M N b F b n M S [ -.@.-.{ { Z h Z T f.9X8X8X$XiXmXNXqXpXmXmXfX8X",
"r.m.m.V.Y.R.].t.8.-.-.e.8.X.....W M M i : q 1 ; 1 < < & & 3 y y y u u b q c m S M Y [ W F F Z Z v ( C.7X$X8X8XOX8XmXfXhXmXhXfXqX",
"h.h.h.V.V.V.OXK.c.e.q.9.1.*... .| I m 9 ; 1 2 ; ; < 3 & $ & 3 3 3 4 w s s m m a b F } M } Y B n Z ) j.@X8XiX$X7XmXBXhXBXfXfXfXfX",
"h.z.r.r.4.w.m.z.q.;.-.*.*.*. .*.W P i 2 $ 1 9 < $ & < 1 & + % @ & 1 2 8 u 8 u m M W S S F N Y ( Q %.p.(.'.OX@X$XFXFXBXfXfXfXfXfX",
"h.r.w.4.9.e.h.9.<.9.;.*. . .| W { M i 1 ; 2 u 8 % < < y 4 @ O O + @ % 1 8 9 2 u s m i i h n n n ! ) 5.!.$X8XyXuXfXfXSXFXBXpXpXBX",
"r.w.w.w.w.4.9.9.r.X.I P [  .} I P s a ; 9 w M s $ $ @ u u 3 O o o + + @ & % % y u 2 w i c c n ! R / Z.'.@X$XyX8X8X8XpXFXBXpXiXpX",
"w.w.h.h.e.9.1...-.;.} I P s A I M u u w w s I A 1 % & 8 a w % O O O O + @ + < 3 1 > q i r n n T _ ) >.j./.{.8X@X{.'.'.8XpXpXiXyX",
"#.1.9.g.V.h.V.I.c. .W A I A s i s w w w i s 1. .u 1 & d S a 8 @   o o O + + @ @ $ > > 5 c n k B L _ %.6.C.I.{.7X5X@X#XOX@X$X8X8X",
"{ #.#.,.<.[ W [ -.*.W A M d A s i u w w s P *.1.I y 8 A [ M M $ o   o O + + + o O # i 5 r t g C L / _ 6.A.W.+X8X8X$XOXOX#XOX@X@X",
"W { E E I I I I s y D U I M d m s i s n a @.,.<.*.s w P | S A 1 +   O   o + + + 2 q - 5 t g j V K L &.>.p.j.(.qXqX8X@X8XfXOX{.{.",
"W =.3.0.9.4.4.*.D y u d s A S M A A A ! N +.f.0.9...W Y Q ! N 9 O o @ O O + $ u - > : 0 r h j V V V K K R 2.x.{.@X@X@XuXNXuX@X(.",
"{ [ 2.=.*.#.1.*.I d u u a s s U A I E Q +.+.5.z.M.*.Y R R ! Y : - - < + o @ 2 - ; 5 5 t t h j C L L / ) ) %.$.w.'.uX$X$XmXmX#XL.",
"@.E { =.3.<.#.M y y y d y 9 & y A E W @.5.0.f.M.M.<.F / K K n 0 e 2 % + + ; - : 5 0 r t t h l L / ` ` _ R R ~ +.w.V.{.OXqX8X@X{.",
"3.=.,.2.,.@.[ s 3 3 3 < 8 a A I I I [ ,.B.C.j.M.M.h.! V V L B e n 2 $ O @ # 2 : , 5 5 t t g j V ^ _ &.>.) T K ) 2.m.I.(.#X(.'.(.",
",.1.,.3.=.@.| s 4 < 1 8 8 a A P W  . . .e.W.W.M.x.w.O.k l V j j n $   + < > : : , 5 5 , t g g j C / ` ` _ ( T K N | w.V.OX{.I.U.",
",.$.,.9.4.4.*.I y 4 8 s A | [ [ I I I [ =.W.(.U.M.z.@.V h j h V n - + & @ - > : , 5 , g g g j l L / ` %.) ! K N B M | r./.$XqXOX",
"$.=.,.4.0.4.[ D p d s s s s P P A S [ | ,.x.OX[.R.z.3./ g k g V b @ @ 3 @ # 7 > : r j j j j j l C / ` %.%.Y B k e b M 1.m.'.%X8X",
"$.$.=.4.4.,.[ D p d s s i A [ P I P { | 2.g.W.%XoXc.9.) K j V K e o 3 & < - > r g j j j j l l l z ^ _ _ / Y N k k e e i Q m.OX$X",
"$.$.=.=.,.=. .D p y s P S F @.#.*.*.+.Q @.f.x.oX).K.h.3.R V V K c + & + + 9 b n B V j j l C C z z L / ( R K N e 0 0 : 0 a +.V.{.",
"2.=.$.@.#.=. .D p y p S +.@.0.0.<.4.@.W { { 5./.J.P.Y.M.%.L j T P u O % + @ 2 k j V C V C C C z C / / R Y n n e 0 5 : : 0 n 9./.",
"$.4.$.@.{ =.#.} s y y S @.:.0.0.8.o.f p 3 u S h.P.oX&X).4.+.K ! A @ % + O & 2 $ k j j z j j l l L ) +.! b n b e : 2 0 ; 2 e #.K.",
"5.4.@.| | @.1.=. .A s M #.s.B.L.K.u.cX] * 8 u I N.&XcXoXg.=.Q i 2   3 % X & u u K V l z V V V / ) +.{ N e 0 k e 0 : : > > 9 #.I.",
"3.2.$.! [ =.<.9.r.e.<.{ @.s.B.W.).p ' = X X d A y.E.CX&Xv.=.| 9   X * X X X % w T / L V C C L ) $.{ P a 2 q w 0 0 e > > > ; m 3.",
"Q +.+.Y @.=.9.z.r.N.P.H.e.M.C.!.].y f = = X 8 4 -.H.cXXXc.3.@.4 . X * %   X % ; ( / L L L L / +.+.Q P u w w q q q ; > 7 - ; 9 M ",
"! { $.Y { 0.w.9.0.P.oXoXK.L.`.A.].} y * = = D 4 } R.cXoXJ.3.@.O o o   3 % O * q / C C ^ ^ ^ / +.W M 9 $ # ; ; 9 2 - # $ - > 2 r ",
"Q $.$.@.W ..<.9.0.K.J.R.T.U.`.A.B.B.n 2 2 y 4 p } E.zX&XH.-.S O o O     o o 9 Z j l H ^ ^ ) +.+.E m 4 % $ % @ # # # - - 7 > : 0 ",
"N +.$.$.| *.1.4.r.8.J.oX%X].Q.D.A.A.b.%.F ! { @.-.E.XX&XP.-.} @   . 2 c b Z h g l H ^ ( ) Q P W I u $ + + O o # ; - - $ 7 > 5 k ",
"S { { $.#.=.3.w.9.v.q.N.T.*X+X(.A.l.d.6.$.+.@.@.oXH.zX&XT.-.#.q O O ; N F Z V V l L / ) Q { i 2 $ 3 $ + O o   O # # - ; $ > 2 e ",
"Q Y S $.$.=.<.9.r.q.8.q.P.-X).*X=X].L.b.k.M.U.oXlX&XCXzX.X3.=.O.w 1 b +.%.+.+.%.%._ T N P P I y & O + + O o   . + + + # $ > q n ",
"Q Y Y =.=.1.,.1.4.w.9.z.K.N.).=XlX=X*X%X].Q.].*XlXzXHXCX-Xs.:.+.#.#.:.2.2.2.2.:.@.@.W a 9 9 8 8 8 % @ O . X       + + # $ w Y ! ",
"Q +.{ =.$.#.=.=.,.0.w.z.K.K.R.oXoX=X=X=X=X+X`.B.*XCXHXCX-X0.:.%.2.2.2.6.4.5.4.*.[ P I 8 w $ @ & @ @ O . .       O & 2 2 q q M N ",
"{ { +.@.$.#.#.#.4.w.g.h.K.T.R.I.W.*X=X=X=X=X+XQ.!.lXCX&Xk.^ ^ %.:.2.:.5.w.0.=.*. . .[ M 8 @ < < + % + O     X o + 1 3 ; > q M N ",
"O.{ Q | +.#.*.1.h.m.L.L.W.W.L.K.Y.].+X*X=XbXbX{.`.}.(.k.&.^ H Z &.$.2.0.g.,. .s { I A A 3 + < + O O o .     . O 3 2 < ; 0 Y $.+.",
"O.Q { +.*.=.9.K.W./.C.B.B.m.f.z.).*X=XxXbXCXCX=XW.b.s.} O.O.( x ^ &.5.g.h.9...I ; s u % O @ & @ & . . .       + 8 8 9 q N $.B.j.",
"+.O.+.@.#./.%X).I.C.B.g.f.V.U.=XAXGXGXCXCXCXCXCX=XP.g.g.s.$.%.&.5.h.C.V.t.t.<...s ; $ 1 < $ < 3 & 3         . u P s a N +.5.j.|.",
"g.,.3.g.W.].qXY.h.B.!.(.{.mXbXbXCXGXCXCXCXCXCXcXCXlXlXlX-X).P./.P.).P.R.N.v.<.} A i w i i q w 1 1 % 3     . ; P | P Y | 2.w.k.p.",
"'.{.7X7X8XOX7XwXeXOXfXMXMXVXAXbXbXbXbXVXAXnXnXnXxXlXlXcXzXoXR.).T.P.T.J.c.r.8.-. .U I I N N e b e ; # < O : B +.=.! { $.2.p.6.>.",
"eX9X}.eXeXgX9X9X9X9X7XMXsXwXwXgXqXsXwXsXnXnXwXxXxXxXlXlX&XoX).R.U.I.K.c.c.c.<.<.*. .A I S n N n c r : - 2 k K 2.2.Q Q +.>.6.>.&.",
"kXgXeX,X6X6X0X6X,X,X,XgX5X5X6X6X9X9X{.gX+XwX7X*XnXbXxX=X-X-XR.T.U.U.U.N.M.v.y.9.<.1.I i S b c c b j g g g V ) 5.2.Q Q ) %.%.%./ ",
"fX0X6XjX0X<X1XjX9X6X|.^.,X|.^.|.5X_.}.}._.+X4X+XnXnXqXoX-XoXP.P.T.).).K.M.c.e.8.<.*.A w S i h n j j j j l L >.f.5.T Q ~ ) ) ) / ",
"jX1X>X1X1X~.~.<X2X>XD.:X>X>X~.D._.>XD.A.F.^.7XqXwXwXOX(.(.K.h.U.Y.oXR.P.V.t.t.q.9. .m 8 s a b B K V V V ^ ` 6.f.5.T R ) R ) _ / ",
"0X3X:XD.<XrXS.S.6XD.S.S.D.~.D.F.A.D.l.a.a.A.4X}.7XwX4X}.(.L.x.v.e.R.R.c.U.y.e.q.8. .I A D I m N R R L / _ >.p.k.5.R K R R K ) %.",
"1X0X<XD.D.:XD.~.kX~.S.n.S.S.S.l.a.n.a.a.a.l.}.7X+XGXZXwX#X(.L.z.q.t.t.q.c.e.9.-.*.X.D s D o.U ! +.) / _ >.p.h.j.5.Q Y N Y K ) R ",
">X2XjX>X0X6X9X^.kX9XS.n.~.A.^.^.}.0X^.A.l.6X5X}.#XGXJXGXCX*X].K.t.q.-.-.-.<..... .X.I s s A s { ,.3.6.5.k.h.m.m.7.Q N e r k Z T ",
"2X2X3X1X2X2X0X,X,XkX_.n.>X_.,X9X5XeX,X|.A.>X6X,X7XCXJXJXHXvX-XR.t.9.;.@.{ #.} [ [ *.M a s S A ..h.b.M.V.V.m.m.m.7.| M 0 a ! ~ Q ",
"0XjX0X3X1X6X0X0X6X6X1XS.,X4X'.gX}.6XeX,X^.A.>X<X,X*XGXCXGXCXzX.Xt.8.-.;.@.@.{ [ }  .A A A I u ..V.U.Y.I.I.V.m.m.5.+.N M N N Q +.",
"1X2X2X:X<X<X0X6X6X<X~.~.6X9X}.jX5X|.9X4X}.|.^.<X,X^.wXGXwX*X*X.Xv.8.;.t.P.x.9.*.W [ M A m W W 1.T.oX[.R.Y.I.V.j.5.+.! | Q | $.@.",
"3X3X1X<X>X3X3X3X:X:XD.D.3X<X>X6X<X,X6X<X|.>X2X|.>X^._.7XMX7XW.L.t.-.;.e.).J.M.r.@.E M i [ I S -.oX=X=X[.;XI.V.m.5.! M M P Q | =.",
":XrX<X0X1X2X<X:X<X<X<X:X:X<X:X:X<X<X<X>X>XD.D.D.S.F.D.^.A.^.A.l.f.-.{ x.I.<.P.c.c.#.[ @.-.-.[ X.-XvXlX=X%XoX'.I.m.| P #.r.0.$.$.",
":X~.rX~.2X<X<X:X~.1X<X~.:X:X~.~.~.D.<XD.~.D.S.F.n.n.n.F.A.l.l.l.B.b.@.=.w.K.U.P.W.c.4.w.J.c.t.8. XlX&X XXXoXK.V.h.z.r.I.L.z.g.w."
};
