/* XPM */
static char *_0de7afd445b45fcef7a79c88258c298foKUkrQ5Tkbcfxjq[] = {
/* columns rows colors chars-per-pixel */
"64 64 256 2 ",
"   c #140D0D",
".  c #1A0E0E",
"X  c #18120E",
"o  c #190F10",
"O  c #151112",
"+  c #1C1313",
"@  c #14131A",
"#  c #1D181A",
"$  c #0E1319",
"%  c #24170D",
"&  c #231515",
"*  c #231A1A",
"=  c #2B1B1B",
"-  c #261716",
";  c #2F1918",
":  c #36231C",
">  c #2A2712",
",  c #271C23",
"<  c #331E22",
"1  c #2A2225",
"2  c #392727",
"3  c #3B3539",
"4  c #372C30",
"5  c #1D1922",
"6  c #4A2619",
"7  c #692A0E",
"8  c #692D15",
"9  c #742E17",
"0  c #6C3318",
"q  c #77361B",
"w  c #452C2A",
"e  c #46352C",
"r  c #59352A",
"t  c #493837",
"y  c #553A36",
"u  c #4E2B2C",
"i  c #683727",
"p  c #753C27",
"a  c #673B36",
"s  c #723B38",
"d  c #471D08",
"f  c #2B4C3D",
"g  c #1F4B3A",
"h  c #56423C",
"j  c #4A433D",
"k  c #7A432B",
"l  c #684338",
"z  c #7A4736",
"x  c #5C641C",
"c  c #533F43",
"v  c #37574B",
"b  c #337871",
"n  c #18665D",
"m  c #594745",
"M  c #4D5150",
"N  c #664A47",
"B  c #754D45",
"V  c #68544D",
"C  c #755A4E",
"Z  c #785649",
"A  c #695756",
"S  c #755B54",
"D  c #7B5D53",
"F  c #745D5A",
"G  c #7A5E5A",
"H  c #715553",
"J  c #664F52",
"K  c #50655D",
"L  c #7C6055",
"P  c #7D625C",
"I  c #756159",
"U  c #6D6358",
"Y  c #4B6C6A",
"T  c #546B68",
"R  c #56746E",
"E  c #5C7675",
"W  c #4D796F",
"Q  c #7C6562",
"!  c #786866",
"~  c #6D716F",
"^  c #635D61",
"/  c #8C3B1B",
"(  c #873918",
")  c #8C3912",
"_  c #863D23",
"`  c #934A1D",
"'  c #884726",
"]  c #844C38",
"[  c #914F2E",
"{  c #B1662F",
"}  c #865545",
"|  c #845C54",
" . c #975B54",
".. c #92554B",
"X. c #866359",
"o. c #9B6959",
"O. c #946A51",
"+. c #A8654C",
"@. c #A86759",
"#. c #AA7958",
"$. c #B47051",
"%. c #826663",
"&. c #846A64",
"*. c #836C6B",
"=. c #8A6D6B",
"-. c #8A6D65",
";. c #8A726C",
":. c #997568",
">. c #8C7372",
",. c #877976",
"<. c #947B7A",
"1. c #957977",
"2. c #906C6A",
"3. c #A77767",
"4. c #B87A68",
"5. c #AD746A",
"6. c #A15C4C",
"7. c #C87E61",
"8. c #36857B",
"9. c #2D8679",
"0. c #5A827B",
"q. c #6A847D",
"w. c #98817C",
"e. c #89827C",
"r. c #B78976",
"t. c #B1876F",
"y. c #B28E50",
"u. c #C5895D",
"i. c #C98B77",
"p. c #C59576",
"a. c #C98F69",
"s. c #BFD141",
"d. c #849410",
"f. c #5C7F81",
"g. c #9B7E81",
"h. c #847E83",
"j. c #318D82",
"k. c #518B86",
"l. c #688884",
"z. c #748989",
"x. c #6D9997",
"c. c #77A2A3",
"v. c #9C8383",
"b. c #998987",
"n. c #879998",
"m. c #999696",
"M. c #918C8A",
"N. c #A38C8B",
"B. c #A38786",
"V. c #B68B83",
"C. c #A6928B",
"Z. c #BA958A",
"A. c #AB9594",
"S. c #A99996",
"D. c #B59B97",
"F. c #B48E94",
"G. c #94A49E",
"H. c #B6A49D",
"J. c #ABA09C",
"K. c #8AA6A4",
"L. c #98B1AF",
"P. c #A9A7A6",
"I. c #BCACAB",
"U. c #B7A8A5",
"Y. c #B8ADB3",
"T. c #A8B7B7",
"R. c #BDB3B3",
"E. c #BBB8BA",
"W. c #B2B3AD",
"Q. c #979FA2",
"!. c #CA9789",
"~. c #CBA697",
"^. c #CFA78E",
"/. c #C1ADAC",
"(. c #C7AAA8",
"). c #C8B4AB",
"_. c #D6B7A9",
"`. c #C4B4B4",
"'. c #C5BBBC",
"]. c #CABDBD",
"[. c #C8B8B6",
"{. c #D5BBB6",
"}. c #D4ACB4",
"|. c #B2C1BC",
" X c #C9C1BE",
".X c #D8C2BB",
"XX c #D7C2AF",
"oX c #E6C7B9",
"OX c #B9BDC1",
"+X c #A6BBC0",
"@X c #98BEC1",
"#X c #C4BDC2",
"$X c #C9BEC1",
"%X c #CBBFC9",
"&X c #D3BDC1",
"*X c #BAC5C8",
"=X c #B4CED0",
"-X c #C5C1C4",
";X c #CCC4C4",
":X c #CCC5CA",
">X c #CDC9CB",
",X c #C8C7C8",
"<X c #D2C5C3",
"1X c #D4C9C6",
"2X c #DDCAC4",
"3X c #D1C6CB",
"4X c #D3CBCC",
"5X c #DACDCC",
"6X c #DCC6C3",
"7X c #D8D1CD",
"8X c #CECCD2",
"9X c #C6CBD1",
"0X c #D4CDD2",
"qX c #D9CED5",
"wX c #D5CED9",
"eX c #DACFDA",
"rX c #C8D5D7",
"tX c #D6D1D3",
"yX c #DAD1D4",
"uX c #D6D2D9",
"iX c #DCD4DC",
"pX c #DDD9DD",
"aX c #D3DADA",
"sX c #CFD3C5",
"dX c #E4CBC6",
"fX c #E6D3CC",
"gX c #E2D5D4",
"hX c #E1D6DC",
"jX c #E3DADC",
"kX c #EADCDC",
"lX c #E8D8D5",
"zX c #F4DBD4",
"xX c #EBD1CD",
"cX c #F9E5DD",
"vX c #EBE0DB",
"bX c #DDD5E0",
"nX c #DDDAE1",
"mX c #D4DAE5",
"MX c #E1D5E0",
"NX c #E5DCE3",
"BX c #E8DEE4",
"VX c #E9DEE9",
"CX c #F0DDE1",
"ZX c #D8E2E6",
"AX c #CDE1EA",
"SX c #E6E1E5",
"DX c #EBE3E5",
"FX c #EAE4EA",
"GX c #EDE9ED",
"HX c #E5E3E9",
"JX c #F4EBEC",
"KX c #FBEDEC",
"LX c #F6E8E7",
"PX c #F3EBF2",
"IX c #F9EFEE",
"UX c #DEE0DF",
/* pixels */
"jXpXpXyX7XH.6XdXqX6X}.F.!.(.iXBXBXFXBXVXFXPXPXPXPXPXPXJXGXGXGXGXGXGXJXJXJXJXJXFXAXk.9.b rXGXDXDXDXHXHXHXHXNXaXl.K.ZXDXDXkXBXDXBX",
"jXpXpX|.n.n.tXtXyXyX&X(.{.gXFXBXNXNXMXMXNXFXPXGXGXPXGXGXGXFXGXFXGXGXGXGXPXGXGXHX@Xj.9.x.ZXFXGXGXGXFXFXHXHXHXSXL.0.=XUXDXNXBXBXBX",
"jXjXaXrXn.OX8XuXyX>XE.kXkXBXBXNXMXiXqXqXiXBXHXGXGXGXGXFXFXFXFXHXGXGXGXGXGXGXGXZXx.j.b =XGXGXGXGXDXDXHXHXHXHXHXrXk.K.ZXSXNXDXDXNX",
"jXjXpXuXE.8X0X0XyXqXhXMXjXhXiXiXuXwXwX0X:X:XBXFXFXGXFXFXFXFXFXHXFXFXFXGXFXFXHX=Xk.9.k.ZXHXDXDXDXDXDXHXHXHXSXBXpXK.0.rXSXNXDXNXhX",
"jXjXhXjXtXuX0X0XMXMXMXiXiXiXuXwXwX0X:XY.wXNXBXHXHXFXHXFXFXFXFXHXHXHXHXHXFXHXnXx.j.n c.ZXFXGXDXDXDXDXHXHXHXSXSXSX*XE K.ZXNXjXpXpX",
"MXMXMXMXhXiXbXMXMXiXuXuXeXuXwX0X:XY.:XnXBXBXHXHXHXHXGXGXGXFXHXHXHXHXHXHXHXVXrXk.9.n k.ZXHXFXDXDXBXHXSXSXSXSXBXNXaXn.0.rXhXjXpXpX",
"MXMXnXnXMXiXbXiX0X0X0XwXwXwX-XY.:XiXMXHXBXBXHXHXHXHXPXGXGXFXFXFXFXHXHXHXFXZXK.8.b x.f.T.ZXSXDXDXDXHXSXSXHXSXBXBXSX*X0.L.pXhXpXhX",
"bXbXnXnXnXhXbXuX8X:X8X>X>XE.-XuXpXNXBXBXHXHXHXHXHXFXGXFXFXFXFXGXFXHXBXHXBXmXk.9.b =XK.z.ZXSXlX`.5XSXSXSXjXSXNXBXNXaXx.q.rXpXpXhX",
"iXiXbXbXbXbXiXuX0X0X-XE.E.tXbXNXMXBXNXBXHXHXHXHXHXHXHXHXFXGXGXGXHXBXBXBXNX+X8.b c.mX=Xq.*XhX(.A.5XkXSXSXNXSXSXNXNXpX*XW T.aXpXhX",
"iXbXbXbXiXpXpXiX3XE.#XwX0XpXjXpXNXNXBXBXHXHXBXHXHXHXHXHXHXHXFXFXFXHXNXBXmXx.9.b *XpXnXn.Q.(.!.V.7XSXBXkXjXjXjXjXjXpXaXz.q.rXpXhX",
"uXiXbXbXiXpXpXuXwX0XuXuX0X4XyXjXNXBXNXBXBXBXBXHXHXHXHXHXHXHXHXFXFXHXBXHX=Xk.8.k.aXjXSX0XJ.Z.V.V.gXBXBXkXkXjXjXhXjXiXnX|.R L.pXiX",
"wXiXiXiXiXpXpXiXiXiXpXiX].<.B.(.lXjXBXNXNXBXBXHXHXHXHXBXBXVXBXBXHXBXVXZXc.8.b L.NXjXgXU.V.i.4.Z.lXNXBXjXjXjXjXhXpXMXiXrXz.l.rXuX",
"wXeXiXiXiXpXpXiXiXhXpXhX/.:.r.5.B.dXjXNXBXBXSXBXBXBXBXBXBXBXBXBXBXBXNXrXk.8.b rXpXlX(.3.4.4.@.~.hXNXjXjXjXjXhXpXpXpXiXaXT.Y L.rX",
"0XwXuXuXiXiXiXiXiXhXhXgX.Xo.i.i.3.:.<XyXNXNXNXBXBXBXBXBXBXBXBXBXBXBXBXL.8.b c.aX5X).:.5.@.@.o.(.hXpXjXhXjXjXjXpXpXpXhXhXrX0.l.rX",
">X0XuXuXiXMXMXMXbXiXMXhXlXr.!.i.4.o.X.[.yXpXpXpXNXNXNXBXBXBXHXHXBXBXaXl.8.b *XgX_.X.o.@.@.6.o.{.gXiXnXnXMXbXiXpXpXpXjXiXpXL.Y T.",
">X0XuXiXiXMXMXMXbXiXMXjXgXZ.!.i.i.4. .B D.gXhXpXpXNXNXNXBXBXBXBXNXBX*X0.W K.yX_.3.] o.@. . .X.J.tXuXiXiXbXiXiXpXpXpXuXyXyXrXE l.",
">X0XwXuXiXiXMXMXiXhXhXMXgX}.i.i.i.i.4...a v.5XuXpXMXjXnXnXpXhXjXkXlXU.W.sXfXoX!.p z  . . . .,.q.rXuXiXiXbXiXuXpXaXyXyXqXyXuXK.Y ",
":X>X0XwXuXuXiXMXhXiXhXpXpXdXr.4.7.u.4.5...u ! E.P.E.E.P.M.m.$X[.)._.^.^.^.^.^.Z r a z ] } X.P.E L.wXuXuXiXiXuXuXuXtXtXuXyXuXrXE ",
"P.;X0XwXqXeXeXMXMXMXhXhXiX5XZ.4.$.$.$.5. .a 2 3 3 3 3 3 t A /.dXXX^.p.u.a.p.O.6 6 u a s B X.'.z.q.9X0XeXiXuXyXyXyXyXyXtXqXyXwXm.",
"e.#X3X4XqXeXiXiXMXMXMXbXiXgX{.5.$.+.6.+...l 2 , 5 1 1 4 t b.2XxXoX^.p.u.a.a.t.z l l a i B %.;XL.R T.8XwXeXtXtXyXyXyXyXyXyXyX0X:X",
"m.E.>X0XqXeXeXiXiXiXiXiXiXiXfXV.@.+.+.] p r < 5 @ # , 1 t H.2XxXoX_.p.u.u.u.4.o.X.Z B a N w.4X*Xl.l.9XwXqXwXtXtXtXyXyXyXyXtXtX>X",
"M.E.>X0XqXeXeXiXiXiXiXiXiXiXyXZ.@.....] a u < # # # , 4 m H.2XlXxXoX^.t.$.$.+.o.| Z B B B /.qXuXL.R T.uXtXwXtXtXtXyXyXyXyXyXqX0X",
"m.E.:X:X0XeXuXeXiXiXiXiXiXuXtXH.2.z s z i u , # , # 1 t ;.).2XlXxXdXXX!.u.y.#.t.o.X.Z B S [.3X8X9Xl.z.9X8X0XtX0X0XyXyXyXyXyXyXtX",
"M.E.-X:X0XwXeXwXwXeXuXtXyXyXyX<X>.B s a r w - * , 2 m v.(..X2XfXfXdXoX~.p.#.t.p.r.3.o.| X.D.3XtX8XL.Y T.8X0X0X0X0XyXyX0XtXtXyX0X",
"M E.#X:X8X0X0X0X0XqXuXyXyXtX7XtX[.H a r u = & = 3 U N.).dXdXfX2XdX6X.X~.t.#.#.p.p.p.r.:.-.w.1XyX8X*Xl.z.>X3X3X0XtXtXtX4X4X4XyX4X",
", m.#X:X8X8X0X0X0XwXwXtXyXtX7XtX4X! N y 2 & = 4 U A.).6XdXfXfX2X.X.X.X_.t.t.#.p.!.r.r.t.-.-.].0X3X9XK.T T.>X3X4X0X4X4X0X3X4X0X0X",
"# ^ #X-X:X:X>X0X8X0XwXtXtXtX7XtX0XM.m y 2 & w V w.)..X.XdXdX2X.X.X{.[.).Z.r.:.:.t.3.| l C X.S.4X3X8X*XE z.*X:X>X4X4X4X4X4X4X4X4X",
"@ 1 Y.-X:X:X3X0X0X0X0X0X0X0X7X7X4XM.w 1 & * m *.D..X.X.XdX2X2X.X.X[./.).C.;.C h y 6 6 r e h w.1X3X>X,XK.Y T.,X>X3X3X0X4X3X3X>X3X",
"@ @ h.OX%X:X3X0X0X3X4X3X3X4X4X4X4Xm.< + + t ! v.D.{.{.[.{./.H.v.H.S.S.U.N 6 : w : : w y B Z ;.1X4X>X:X*XE z.*X,X3X3X>X4X>X>X>X>X",
"@ @ M Y.:X:X3X0X0X;X4X;X;X;X>X>X3XY.2 * 3 ,.v.>.J J J V V h e e Q <.<.N.H N A w - & w l Z B P ].>X>X:X,XK.E T.-X:X3X>X>X;X;X;X;X",
"@ @ , m.#X:X3X3X3X;X;X;X;X;X;X;X3XR.3 1 M b.<.y V A m h h F P G ;.<.g.<.=.Q J % * & 2 l z B G `.:X>X:X,X*XE z.*X-X>X;X;X;X;X;X;X",
"@ @ @ ^ #X$X-X;X;X;X;X;X;X;X,X;X3X'.j 3 ,.b.v.>.t t 4 : : y &.<.v.v.v.v.;.! J = + = u N Z B P `.:X:X:X:X*Xn.Y T.,X,X;X;X;X;X;X;X",
"$ @ @ 1 Y.#X:X;X;X;X;X;X;X;X;X3X1X;XA J S.b.v.N.J 2 = = = t H <.v.B.g.<.=.Q A w 4 t N P -.D &.U. X;X:X:X,XT.T n.9X:X;X;X;X;X;X;X",
"$ @ @ # h.#X-X;X].;X;X;X;X;X;X3X<X<XM.b.U.g.v.N.*.w - & 2 m V 1.B.B.g.<.=.*.Q A ! ;.<.1.;.&.=.U.'.>X;X;X,X*Xz.R T.-X;X-X X$X;X-X",
"@ @ @ @ M '.-X;X$X'.P.R.].;X<X4X<X;X'.U.U.<.<.v.<.A t t m Q F >.g.B.g.<.=.%.%.;.<.<.<.<.>.&.>.I.-X:X-X;X:X-XT.T n.*X-X'.'.'. X X",
"X X + @ 1 P.-X].'.U.! M.R.R.<X<X;X;X'.U.b.,.>.1.<.<.>.1.<.v.g.v.g.<.g.B.<.%.=.>.<.1.1.>.&.P <.R.-X-X;X;X:X-X*Xl.E *X-X'.#X'.;X X",
"x x > * @ ~ E.E.`.m.A ! ,.,./.).D.>.C.U.e.,.>.>.<.v.b.N.C.A.S.A.B.<.g.N.B.=.%.>.<.1.>.*.Q *.J.R.'.-X;X;X;X;X#XP.T G.OX].].$X$X].",
"s.y.> # # 3 m.P.I.,.A A A m S X.} } <.[.w.>.>.>.<.v.N.C.C.A.S.S.N.g.B.A.B.=.%.=.>.>.*.Q F ,.`.~ '.'.$X;X;X$X;XE.E E OX'.$X$X$X$X",
"d.x e m 1 M ^ ^ ! ! J m m h l z ] } D.xX/.*.*.=.1.w.v.C.C.A.S.A.B.<.A.D.w.=.P %.=.=.Q P H g.S.3 '.].$X$X;X$X$X'.G.K n.'.$X$X;X$X",
"x > j A m A U F m y y y y y i p k } Z.zXfX,.A Q Q ;.<.v.N.N.N.N.B.<.D.A.1.&.G G %.&.Q F V F m 1 R.$X$X$X$X$X$X#XT.R R |.;X&X$X X",
"> % % 1 2 : y r r a l r i i i p k X.{.zXlX`.m V V F *.<.w.v.v.v.B.1.B.B.&.P H S P %.P S m 2 < 1 U.'.'.'.$X$X$X$XE.n.v G. X].]. X",
"% h O.} d 6 i k z z k i i i p k } w.fXCXkX<X,.2 m A F *.>.<.<.v.w.<.>.=.P H N H G I G H y = * * P.'.].].$X$X].'.E.T.T E *X#X#X#X",
": #.u.$.' ] ] ] k p i 0 i i z } t.dXcXkXBX5XS.& 2 h J Q ;.<.1.1.w.1.*.N N h y m N V S H y - * * ,.'.#X].#X].].].$XE.n.M L.-X#X$X",
"d $.{ ` [ [ ' p i 0 0 p z z } Z.zXLXLXDXjX4XR.* & = t J %.>.>.>.Q V y 2 ; - & ; ; 2 y J t * & + ! '.#X'.'.'.].].$XE.W.T ~ OX'.%X",
"8 ` ` ` [ k q 0 9 q ' ] ] } 1.xXKXLXDXkXjX3XR.4 + & = t F ! ! m 2 = - % % & - ; : = : c 4 & + + J U.`.'.'.'.'.].].'.-Xn.M T.-X].",
"' ` ` ' p 0 8 9 _ ' ' k z -.zXLXJXJXvXjXgX5X].m + * * - m A h 2 1 2 2 2 e t y t t 4 = 2 = O O O m b.I.'.'.#X'.'.'.'.E.T.M z.E.].",
"' ( q 8 7 0 p ' ' ' p p Z XXLXKXJXDXkXlXgX7X4XM.* # # + 4 m 2 2 t m m N m m m t 2 < - * & O O . m <.N.`.'.'.'.'.'.'.'.E.z.K T.'.",
"q 7 7 0 q ' ' ' q q i B {.LXKXKXLXvXkXgXgXyX5XR.* # # X + 4 1 - w t t t w 2 : = - + . O O . o . m *.<.S.[.'.'.'.'.'.'.E.T.M z.E.",
"7 9 q _ [ ' ' q 8 i z ~.LXKXKXJXLXvXgXyXyX7X4X'.4 + + O X 1 = + - < < = - - - - & .       O   . J *.>.A.[.'.].'.'.'.'.`.E.E M T.",
"9 ( ' ' ' q 8 0 0 z V.cXKXIXKXJXDXkXyXyX5X4X<X`.~ + O X O + + o + + & * * * * & +             - F %.*.N.`.[.'.'.'.'.'.`.E.Q.v l.",
"` ` ' ( 7 8 0 p p X.dXLXIXIXKXLXkXgXyX5X1X.X].R.C.1 + o O . X O O O + * , 1 * #             % m F P %.1.I.'.'.[.[.].[.I.Y.P.T K ",
"' q 7 7 8 0 q p z Z.cXKXKXKXJXDXgX5X7X4X<X].[.`.S.A . + O O . X   O O + * * * O     X o o + m A D P %.>.U.`.`.`.[.`.I.J.U.U.M.v ",
"9 8 8 0 q q _ ] X.oXKXIXKXLXLXkX4X4X4X1X].[.`./.D.b.2 + o +   O   O O O O O O       O + . m A F D L P ;.U.`.[.`.`.`.I.S.C.A.m.M ",
"7 7 9 q p _ _ ] Z.cXLXKXJXLXkXjX;X;X;X X`./.U.U.A.b.Q t & . X o O O     O O O O O + + + & V F L S L P &.A.R.`.`.[.`.I.H.C.w.e.U ",
"9 9 q ( _ _ _ 6.oXcXKXJXLXDXjXyX X'. X'.I.U.D.A.N.v.>.! F m & . O + + + + + + + # # # * 1 F P X.L D P Q b.I.`.`.`.`./.H.C.&.C V ",
"9 ( ( _ _ _ ' !.cXLXLXLXLXlXgX5X<X'.].`.U.A.A.B.B.1.-.&.%.P N - + * # + + + + * # # * & t L L L L L P %.*.H.R.R.`.`./.I.D.>.C V ",
"( / / / / ' ] oXzXLXLXLXvXgX7X1X<X[.`.`.U.C.B.w.1.;.&.P P P S y - + * # + + O O O # # & m P D X.L L L P *.v.R.R.`.`././.U.C.P C ",
"( / / / / ' 3.zXcXkXkXlXgX5X5X X X'.[.I.U.S.v.<.;.=.&.X.X.P S I e X & + + O O + + + . w F D D D D L P %.! Q P.R.R.`././.U.A.>.X.",
"( ( / / / ' ~.zXvXlXfX5X1X<X[.'. X<X].I.U.S.v.1.=.&.X.X.L L D S V : & + o O + & & - e A F P D D D D P P ! A ~ I.R./././.U.S.<.S ",
"/ / / / _ ] oXzXlXlXfX5X1X1X<X1X5X5X.XU.U.S.v.1.;.&.P G D D D D S C t < : 2 t m J H G P G D D D D D D P ! K M P.U.I.I./.U.H.N.H ",
"( ) / / k o.xXlXlXgX7X7X5X5X1X6X5X5X<XI.J.S.v.1.=.&.X.L D D D D L L P F F F F G G X.D D D D D D C C G Q ! K f q.U.I.I./.U.H.A.&.",
"( ) ) / k ^.zXlXgXyX7X5X5X5X<X<X5X5X<X`.S.C.b.1.=.%.X.P L D S S C D G L G G G | | | | | | D C C C C I P ~ K f v P.I.I.I.I.U.H.w.",
") ) ( q ] oXfXlX7X7X5X1X1X1X<X1X2X2X6X[.H.C.v.1.=.%.P P L F S S C D D D L L L D D | | D D C C C C C P Q ,.K v g q.I.U.I.I.(.U.N.",
") ) ( _ o.dXgXfX7X5X1X<X<X<X<X1X2X2X2X].U.C.<.1.=.P P G F G S S C S D D D D L D D D C C Z C C C C C P %.,.~ v g M P.U.I.U.(.U.S."
};
