/* XPM */
static char *_45785a0b66e42b2c49df951dc010af9HDUsyVVeGYQLU1Ya[] = {
/* columns rows colors chars-per-pixel */
"64 64 189 2 ",
"   c #23051E",
".  c #24081F",
"X  c #1E0621",
"o  c #1F0A24",
"O  c #1F0F29",
"+  c #1F1027",
"@  c #220722",
"#  c #230B25",
"$  c #290D26",
"%  c #240E29",
"&  c #2A0D2A",
"*  c #241026",
"=  c #25112B",
"-  c #2B142C",
";  c #27182F",
":  c #2D192E",
">  c #281227",
",  c #30162F",
"<  c #311B2F",
"1  c #2C1631",
"2  c #2E1A33",
"3  c #2F1B39",
"4  c #311C34",
"5  c #331E3A",
"6  c #381F3F",
"7  c #33212F",
"8  c #2F2036",
"9  c #2F213A",
"0  c #342136",
"q  c #34223C",
"w  c #39243D",
"e  c #37293E",
"r  c #3A2A3D",
"t  c #3A2536",
"y  c #42333E",
"u  c #361E40",
"i  c #362441",
"p  c #3A2543",
"a  c #362942",
"s  c #3C2A43",
"d  c #3B2648",
"f  c #3C2C4A",
"g  c #3E3244",
"h  c #3F314C",
"j  c #412E46",
"k  c #412D4A",
"l  c #433244",
"z  c #463947",
"x  c #4A3B47",
"c  c #43334B",
"v  c #48354B",
"b  c #473A4C",
"n  c #4D3C4C",
"m  c #443351",
"M  c #493653",
"N  c #473953",
"B  c #4B3B53",
"V  c #4C3C5A",
"C  c #4B424F",
"Z  c #4D4353",
"A  c #4F415B",
"S  c #524654",
"D  c #524955",
"F  c #594E56",
"G  c #554459",
"H  c #55495B",
"J  c #5B4C5B",
"K  c #58465E",
"L  c #5D525D",
"P  c #60545F",
"I  c #4D4260",
"U  c #534462",
"Y  c #534A63",
"T  c #594C64",
"R  c #5B4E6A",
"E  c #5D536A",
"W  c #625462",
"Q  c #645A65",
"!  c #6A5B65",
"~  c #655A6B",
"^  c #65596C",
"/  c #655C72",
"(  c #655A73",
")  c #666165",
"_  c #6C646D",
"`  c #6F6768",
"'  c #71646E",
"]  c #6D6574",
"[  c #6B6974",
"{  c #736B74",
"}  c #756D7A",
"|  c #7A7478",
" . c #857C7F",
".. c #80777A",
"X. c #756D84",
"o. c #7F7580",
"O. c #857C82",
"+. c #878283",
"@. c #8C8687",
"#. c #948D8C",
"$. c #918987",
"%. c #9B958F",
"&. c #96918D",
"*. c #858391",
"=. c #978D93",
"-. c #988F94",
";. c #999595",
":. c #9E9A99",
">. c #9A9497",
",. c #A19C9A",
"<. c #A29793",
"1. c #A3A19E",
"2. c #ABA69A",
"3. c #AEAC9E",
"4. c #A49CA0",
"5. c #AFA7A5",
"6. c #ADABAA",
"7. c #ABA7A1",
"8. c #B1ACA2",
"9. c #B2ADAA",
"0. c #B2B1A2",
"q. c #BBBBA6",
"w. c #B5B3AB",
"e. c #B9B6AB",
"r. c #BCBCAB",
"t. c #B9B3A3",
"y. c #B6ABB3",
"u. c #B9B4B1",
"i. c #BDBBB2",
"p. c #C0BFAB",
"a. c #C1BEB4",
"s. c #BEC0AD",
"d. c #C3C2AE",
"f. c #C5C5B3",
"g. c #C8C7B3",
"h. c #C7C9B5",
"j. c #C9CBB6",
"k. c #C5C4BA",
"l. c #C9C6BB",
"z. c #C7C9B8",
"x. c #CCCDBA",
"c. c #D0CFBC",
"v. c #CED1BD",
"b. c #D1D2BE",
"n. c #D8DBBE",
"m. c #CECDC4",
"M. c #D0CEC1",
"N. c #CFD1C1",
"B. c #D4D5C2",
"V. c #D8D7C4",
"C. c #D6D8C4",
"Z. c #DADAC6",
"A. c #D5D5C9",
"S. c #DBDDC9",
"D. c #DBD9CC",
"F. c #DEDED3",
"G. c #E1DFCB",
"H. c #DFE2C7",
"J. c #DEE0CB",
"K. c #DFE0D0",
"L. c #E2E2CD",
"P. c #E5EACC",
"I. c #E4E5D3",
"U. c #E7E9D6",
"Y. c #E7EAD1",
"T. c #E9EAD6",
"R. c #EAEDD5",
"E. c #E9EAD9",
"W. c #ECECDA",
"Q. c #E7E6D9",
"!. c #F0EFDC",
"~. c #EFF0DE",
"^. c #F1F2DF",
"/. c #ECEDE1",
"(. c #EFF1E2",
"). c #F3F5E6",
"_. c #F3F3E3",
"`. c #F6F6EA",
"'. c #F5F5EA",
"]. c #F9F6EC",
"[. c #F6F8EA",
"{. c #FAFAED",
"}. c #F6F5F0",
"|. c #F9F7F1",
" X c #F8F7F3",
".X c #F7F8F1",
"XX c #FAF9F5",
"oX c #FBFAF4",
"OX c #FEFEFB",
/* pixels */
").).).W.:.0 2 2 : : 2 2 y | k.F.E.E.U.E.E.E.T.Q.I.I.L.L.L.L.L.J.L.J.S.S.Z.Z.Z.C.Z.B.b.b.b.b.v.x.x.x.x.j.g.f.k.f.f.f.f.d.d.p.r.s.",
"`.`.`.).W.5.z 2 : : < : : 4 r ] 9.C.I.T.E.T.E.T.U.I.L.U.I.I.L.L.G.L.G.G.S.S.Z.Z.Z.V.B.b.b.v.b.b.c.x.x.x.g.h.h.g.g.f.f.f.f.d.p.p.",
" X X].`.)./.l.W t 2 2 2 2 : 4 4 t n O.l.I.T.T.T.T.Q.L.L.S.S.S.L.J.J.J.S.S.S.S.Z.S.Z.B.B.B.b.b.b.v.v.x.x.g.f.a.r.8.2.2.0.0.2.3.s.",
"XXXX X X`.`./.D.-.z 2 2 2 2 2 : 4 4 0 l | w.a.k.A.C.e.#.} _ | :.i.B.x.e.3.8.e.B.Z.Z.B.V.B.C.b.b.x.x.f.#.F y t 0 4 < : : 2 : x r.",
"XXXXXX X].`.`._.U.u.S t 4 2 2 : 4 4 0 4 q a a c H Q c a f m m B B ~ J c l j z L >.f.k.c.z.j.8. .F l t 4 - - 2 : : : : - : - t e.",
"XXXXXX X X].].`.).I.9.W v w 5 4 4 4 4 4 0 t i i q q i q a f c m v c c k k j 0 0 0 x n n v l t 4 4 < 4 , - 4 1 1 : - : - : < $.d.",
"XXXXXXXXXX{.{.[.).).Q.i.' f q 4 4 0 4 4 4 0 p p a q f f k f a a f c c j s q t q 4 0 4 4 : 2 : 2 2 4 1 , , - 1 1 1 1 - 2 l <.k.f.",
"OXXXXXXXXX{.{.[.[.[._.K.k.{ 4 2 2 q w w p p f f d i w i f d p d f d f r 0 w w p 0 4 5 5 2 : : - - - : : , - : - - 0 n #.a.f.f.k.",
"OXOXXXXXoX{.[.{.{.[.[._.I.9.r 2 w p d j a f f f q 4 5 4 5 5 5 6 6 w 4 q 0 4 4 4 2 2 5 6 4 2 - - - - - - - : 2 : J 5.f.g.g.k.k.f.",
"OXOXOXXX X{.{.[.{.{.{.).E.l.l r f k d p p p q 5 0 : 2 4 4 4 4 4 5 4 2 2 2 2 - 1 1 1 - 2 5 4 2 - - - - - - 4 z O.k.x.j.h.h.k.f.f.",
"OXOXOXoXXX{.{.{.{.{.[.[.^.l.v v k p p p i w 0 4 2 2 2 4 4 2 2 2 2 2 2 2 2 2 - - - - = - - 1 2 4 - - - - t ' e.x.c.x.x.j.h.g.k.f.",
"OXOXOXOXoX X{.{.{.{.{.{._.9.l v p q q q 9 q 0 2 4 2 2 2 4 4 2 2 4 2 2 2 2 - - - - - - 1 - 1 : < - : q W -.i.x.b.v.v.x.j.j.j.g.f.",
"OXOXOXOXOXOXoX{.{.[.{.{.E.C l c i 5 5 5 t e t 4 4 2 2 2 4 q 5 4 2 2 2 2 : - - = - - - - 1 1 : - : : n O.a.B.b.b.b.c.x.x.x.j.g.g.",
"OXOXOXOXOXOXOXOXoX{.{.{.{.,.f f 5 5 0 f Z v 5 4 2 w 0 : 5 q w 5 5 3 2 2 2 : - = = - - - 4 4 2 - - 4 ! ,.j.B.B.b.b.b.c.x.x.j.g.g.",
"OXOXOXOXOXOXOXOXoXoXoX{.{._.~ m f i 0 H [ c w 5 0 t H t i d w 5 4 2 2 2 2 1 - - - - 4 4 4 j s - - : P f.b.B.B.b.b.b.b.x.x.x.j.g.",
"OXOXOXOXOXOXOXOXoXoXoX{.{.[.y.U V p q S *.c a 0 q s ! l q q d 5 2 2 4 2 2 - - 4 2 4 0 4 4 B G 4 : - Z k.B.B.B.b.b.b.c.c.x.x.j.j.",
"OXOXOXOXOXOXOXOXoXoXoX{.{.[.4.E Y d 4 s X.N a 3 4 x ! s a i d 5 2 2 2 : 2 1 2 s 0 0 4 2 4 B K 0 < 4 W j.V.Z.B.B.b.b.b.b.c.x.x.x.",
"OXOXOXOXOXOXOXOXOXOXOX{.{.[.;./ T f 0 q B V f 5 s H H q a p d 4 2 2 2 2 2 2 2 s s 2 : : 0 B B 4 : 5 ' N.B.V.Z.B.B.b.b.b.b.x.x.x.",
"OXOXOXOXOXOXOXOXOXOXOXOX X{.u.~ E m q 5 5 p f p v v e f d d f 4 2 : 2 2 2 2 2 4 l a 2 2 j B r - - q O.C.Z.Z.B.B.B.b.b.b.b.b.x.x.",
"OXOXOXOXOXOXOXOXOXOXOXOXOXOX/.} ^ V p 4 4 2 5 5 0 8 q a p f p 4 2 2 1 2 2 2 2 5 q a i r l t : - - 4 ,.Z.Z.Z.B.B.B.b.b.b.b.b.c.x.",
"OXOXOXOXOXOXOXOXOXOXOXOXOXOX X>.E U f q 5 2 2 2 2 2 4 2 i f q 4 4 2 2 2 2 2 2 1 2 2 : 2 - : - - 2 l k.Z.Z.Z.B.B.B.b.b.b.b.b.b.c.",
"OXOXOXOXOXOXOXOXOXOXOXOXOXoX Xw.T U m s w 5 2 2 2 2 1 2 r s q 4 4 4 2 2 2 2 1 - : 2 1 1 - 1 - 2 4 C M.Z.Z.Z.Z.B.B.b.b.b.b.b.b.b.",
"OXOXOXOXOXOXOXOXOXOXOXOXOXXXXXm.Y I V M a 6 2 5 5 4 2 4 f q 5 4 2 2 2 : 5 2 - - : 2 2 1 - 2 2 2 0 Q V.Z.Z.Z.Z.C.b.b.v.b.b.b.b.b.",
"OXOXOXOXOXOXOXOXOXOXOXOXOXOXXXm.E m U V m a w i 5 5 2 q f w 5 3 2 4 2 2 2 1 2 1 : 4 4 2 2 2 2 4 q @.C.Z.S.Z.Z.Z.B.B.b.B.B.b.b.v.",
"OXOXOXOXOXOXOXOXOXOXOXOXoXXXXXA./ m V U V m m a q 2 4 q f w 0 4 4 0 4 2 2 1 1 1 : 2 2 2 3 2 4 q w 6.Z.Z.Z.Z.Z.V.B.B.B.b.B.b.v.v.",
"OXOXOXOXOXOXOXOXXXoXoXoXXXXXXXQ.] N f N U R U a q 4 5 d i f i q 0 5 5 0 4 2 2 2 : - 4 5 5 4 0 0 s i.Z.S.Z.Z.Z.Z.V.B.B.b.b.b.v.v.",
"OXOXOXOXOXOXOXOXXXXXXXXXXXXX}.Q./ T c f U ( M w 6 4 5 i p N f i 0 2 q q i 5 5 2 : 1 2 w w 0 0 4 G m.Z.Z.Z.Z.Z.Z.Z.C.B.b.b.b.b.v.",
"OXOXOXOXOXOXOXOXXXoXXXXXXX X.X/.] ^ A m V R i 0 q q q 8 f Y c f w w p p p w 2 2 2 1 1 3 a q 5 q ! A.S.Z.Z.Z.Z.Z.Z.B.B.b.v.b.b.v.",
"OXOXOXOXOXOXOXoXXXXXXXXXXX X X].,.Y T V V V i 5 4 w w 2 h R h a p i i w d q 1 2 2 1 1 5 d 0 5 p 4.S.Z.Z.Z.Z.Z.V.V.B.B.B.v.v.v.v.",
"OXOXOXOXOXOXOXOXOXOXXXXXXXXX X XF.T V V N f i 6 5 q q 2 0 Z c a q 0 w 5 q 2 1 1 1 1 1 2 w 0 5 v a.C.B.B.B.B.B.B.v.v.v.x.v.v.c.x.",
"OXOXOXOXOXOXOXoXoXXX X}.}.].].`.Q.} N c v i 5 6 5 q 4 2 ; 2 4 i w q 0 2 2 - 1 1 1 1 1 5 5 q 0 { C.S.S.S.Z.Z.Z.B.B.v.N.v.x.j.x.j.",
"OXOXOXOXoXXXXX X X X X}.}.].`._.W.:.c c c q 0 5 2 2 4 2 2 : - p p w 4 * - - - 1 1 1 1 1 5 0 s i.S.S.J.S.S.Z.Z.Z.B.C.B.B.v.x.x.x.",
"OXOXOX XOXXXXX XXXoX].`.].`._._.(.6.k k c k 5 4 4 2 2 4 1 : 2 p a d 4 - - - 1 1 1 1 1 2 5 r ,.b.B.B.B.Z.S.S.S.Z.C.C.b.b.b.v.x.x.",
"OXOXoXoXOXOXXXXX X{.`.`.).`.`.`./...c s s k w 4 4 4 4 2 4 - 2 q 0 u 5 1 - - 1 1 1 1 1 3 i -.C.S.S.C.B.C.C.C.C.B.B.C.B.b.v.v.x.x.",
" X XOX{.OX{. XXX`.).).`.].].'._.m.H c a q f w 4 2 : 2 2 5 5 0 0 4 6 5 2 4 - 1 1 1 1 1 5 o.A.Z.S.S.S.S.S.C.C.C.b.v.b.v.x.v.v.v.v.",
"{.{.OXoX X{.`.].`.{.`.].).'.'._.1.B j a 0 p d i 2 2 2 5 p w 0 9 2 5 5 2 2 1 - - - 1 4 j l.J.J.S.Z.S.S.S.S.C.B.B.B.N.x.x.x.x.x.x.",
"{.{.{..X X`.`.{..X].`.`.'.).`./.P B j r q q i a i 5 p f d w w w s 5 4 4 2 2 2 : - 2 4 a 1.S.J.S.S.Z.Z.Z.S.Z.B.B.B.B.v.x.g.g.j.j.",
"{.{.{.[.`.[.].].`.`.`.`.`.).).i.b B j a q 5 w d f f V V f p f M N w 2 2 4 4 2 1 2 4 4 q L B.S.J.J.S.S.Z.Z.Z.B.B.B.v.v.v.x.x.g.g.",
"{.].`.`.`.[.].`.`.`.`.`.`.)./._ b c p w 4 4 w w i a f f i f m V M d 5 4 4 w 4 2 4 2 1 q r a.B.S.S.J.J.Z.S.Z.B.B.b.b.v.x.x.g.j.g.",
"[.].`.].`.`.`.].`.`.`.).`.).m.b c a w 2 2 4 4 2 1 i k i 5 i f m k i 2 - - 4 4 - = ; ; 2 4 ` B.S.S.J.J.Z.S.Z.B.B.A.v.v.x.j.x.j.j.",
").[.`.`.`.).`.`.`.`.`.`.`._.&.z a q 4 : - - 1 - = ; w f q w w q i 5 5 4 2 2 1 = % * = = 2 0 i.Z.C.Z.S.Z.Z.Z.Z.B.B.B.x.x.x.j.j.j.",
"_.).).`.`.).`.`.`.`.`.`.`.E._ s t 4 2 : - = = * % * 2 9 q a r q i w 5 4 2 ; O % % * * > 1 4  .B.Z.C.Z.Z.S.Z.Z.B.B.B.v.v.x.j.g.h.",
")._._.`.`.].`.).`.`.).)._.u.c w 5 2 : - = * = = % = = * ; 0 4 d f p 2 = * % % % % % * * - 2 S b.B.C.B.S.Z.Z.Z.B.b.b.v.v.x.g.g.h.",
"_._._.).).`.).).).).).!.6.b p 5 2 2 - * * * = & & % % * * * * * = 1 * * % # # % % # = - = - l x.Z.Z.C.C.C.B.C.B.b.v.x.x.x.j.h.z.",
"_._._._._._.)._._._.Q.+.f p 5 4 - - = = = * = % % % = = % # % # % % % o # # o # % # - * - - r l.Z.S.J.I.S.B.h.x.N.b.x.x.x.j.x.h.",
"^._.^._._._._._._.W.:.a w 5 2 1 1 - - % * # = # % # % % % % % # # % % o # # % % # % * - = - 4 e.S.I.W.S.B.v.j.0.g.x.x.x.x.j.g.g.",
"^.^._._._._.^.^.^.Z.Z 0 0 1 1 1 1 1 * * * * # = o % % % % % % o # # = % @ # # # # % = - = 1 0 +.S.E.S.B.v.x.g.s.s.x.x.x.x.j.g.h.",
"^._._.^._.~.^.^.W.a.a 4 4 - - 1 1 = = * = * # * # % = = % % # % % % * * # @ # # # % % % * : 4 z x.S.Z.b.x.h.k.d.f.x.x.x.j.g.g.g.",
"_.^._.^.^.^._.W.Q.{ 5 2 - - = - = * = = * * # * # % % = % % # % % * * % # # % @ % % # % * : 2 2 &.V.V.B.x.j.f.j.x.c.x.x.g.h.g.g.",
"_.~._._._.^.~.W.l.g 2 : - * * = = * = = % * % * % # % % % % % % % * * % % # % % % # # % - - 2 2 r k.C.b.b.v.v.x.v.v.v.j.h.k.h.k.",
"^.^.~._._.^.T.i.D 4 : - - * = - = = * * % % % * # # % % O # # * * - * % % % # % # # % & = - 2 : 2 { c.B.B.v.v.v.v.x.x.g.g.k.f.f.",
"^.^.^._.~.~.k.D e 2 - - * * % % * * = * * * * * % # # % % % # * * * = = * # % # % @ % % * - = - - 7 e.b.B.v.v.x.x.x.x.g.g.g.f.f.",
"^.^.^.^.W.J.Q f 2 : = * % % % % * % - * * * * * % * # # % # % % * * 1 - % * % # # % % * - = - : - : { x.v.v.v.v.j.x.j.h.g.g.f.d.",
"!.!.W.W.T.7.l q : * % % % % % % % % % % * * * % * % * # # # % % - - - = % % % # # # % % % = - - - - z l.v.v.x.v.j.g.j.h.g.f.f.d.",
"R.W.W.W.C.D w 2 - * # % # % % % % % % # % * % % % # % # # % % % - = - % # # # % # # @ @ # > - - - - - ` x.v.x.x.x.h.k.f.f.d.f.d.",
"W.T.T.T.e.f q : > # # % % % % # % # % # % % % % # # # % # % % % % - % # % # # @ # @ @ @ @ % % % & - 1 0 ,.x.x.x.g.h.f.f.f.d.d.d.",
"W.R.R.L.| w 4 - * # * % # # % % # % # # % % # % % % # # # # % % % % & @ @ # # # # @ # # # @ % % % - - 2 l z.x.g.g.f.f.f.d.d.d.d.",
"R.R.T.B.Z q 2 = # # # % % # @ @ @ @ @ % # # @ # # # # # # # # % # # # @ @ # @ @ @ # @ @ # @ $ % % - - : 0 w.g.g.g.g.d.f.d.d.d.d.",
"P.P.Y.;.q w : * * % % # # X @ . @ @ # $ @ # # % # # # % % # # # # @ % # # # @ # # @ @ @ # @ # % & - - - 2 +.g.h.g.f.f.d.d.d.s.d.",
"P.P.j.b t 4 = * # # # o # # @ @ # % # % # # @ @ # @ @ @ # # @ @ @ @ # # @ @ @ # # @ @ @ @ X @ % % % = - 1 r $.f.f.f.f.d.d.p.p.p.",
"P.Z.) t q 2 % # #   @ @ # @ @ @ @ @ % @ @ @ # @ @ @ @ # # # # @ @ @ # @ @ # @ # # @   X @ @ X # % % - = - : : y t.d.d.d.d.p.p.r.",
"P.r.r 0 4 - % # @ @   @ X X @ @ @ @ @ @ @ @ % % # @ X # # # % @ @ # @ @ # @ @ @ @ @ @ @ @ @ X # % # % - - - - - | r.d.d.d.p.r.q.",
"H.$.4 < : % # @ @   X X X X @ @ @ #   @ # @ & % @ # # # % # # # @ # @ @ @ @ @ @ @ # # @ @ @ @ @ # % % % = - - - 0 8.p.p.p.r.q.q.",
"n.) 4 4 4 % @ X X X X X X X @ @ @ @ @ @ # # % # # @ # # # # % # # # % @ # @ X X # @ # @ @ @ @ @ @ @ # % - - = = : %.r.p.r.q.q.q."
};
