/* XPM */
static char *result[] = {
/* columns rows colors chars-per-pixel */
"64 64 214 2 ",
"   c #0D0202",
".  c #190D0A",
"X  c #150C07",
"o  c #161006",
"O  c #1E1815",
"+  c #221413",
"@  c #271C1B",
"#  c #2C1F1F",
"$  c #291715",
"%  c #2E2119",
"&  c #24211B",
"*  c #37281E",
"=  c #2A1E21",
"-  c #2E2620",
";  c #3B2724",
":  c #332A2A",
">  c #372825",
",  c #3C3230",
"<  c #442A25",
"1  c #432E2C",
"2  c #4A2E2B",
"3  c #44332D",
"4  c #4C342E",
"5  c #453533",
"6  c #4A3532",
"7  c #4C3A36",
"8  c #4D3C3A",
"9  c #433A3D",
"0  c #523732",
"q  c #533B35",
"w  c #523E3A",
"e  c #523B2B",
"r  c #46413E",
"t  c #54453C",
"y  c #5C433C",
"u  c #58473A",
"i  c #4E4444",
"p  c #534444",
"a  c #5C4542",
"s  c #5D4A44",
"d  c #5E4C4A",
"f  c #544B47",
"g  c #5E524F",
"h  c #5A4F51",
"j  c #5D5151",
"k  c #604740",
"l  c #654B44",
"z  c #634D49",
"x  c #6A4E48",
"c  c #645245",
"v  c #63524B",
"b  c #6A524B",
"n  c #6A594F",
"m  c #68554A",
"M  c #70554E",
"N  c #6B5552",
"B  c #645C56",
"V  c #6E5A55",
"C  c #665D5B",
"Z  c #6C5E5C",
"A  c #615454",
"S  c #725A54",
"D  c #795E55",
"F  c #745E59",
"G  c #6B635E",
"H  c #6A645E",
"J  c #74625C",
"K  c #7B635C",
"L  c #796458",
"P  c #6C6362",
"I  c #746564",
"U  c #7C6661",
"Y  c #7C6A64",
"T  c #746D6C",
"R  c #7B6B6B",
"E  c #746D65",
"W  c #7B726C",
"Q  c #78716A",
"!  c #7C7672",
"~  c #81665E",
"^  c #866A5F",
"/  c #836A65",
"(  c #836E6A",
")  c #896F69",
"_  c #866A62",
"`  c #86726E",
"'  c #8B726C",
"]  c #887265",
"[  c #91766B",
"{  c #837472",
"}  c #8B7572",
"|  c #857A72",
" . c #8A7A74",
".. c #857B7A",
"X. c #8C7B7A",
"o. c #927570",
"O. c #947A74",
"+. c #997E76",
"@. c #947E7B",
"#. c #987E79",
"$. c #86807D",
"%. c #8D8179",
"&. c #8E8077",
"*. c #9B8276",
"=. c #95817D",
"-. c #9B837C",
";. c #988677",
":. c #A0857D",
">. c #A3887F",
",. c #8D8180",
"<. c #948382",
"1. c #9A8583",
"2. c #948A84",
"3. c #9D8985",
"4. c #9D8C8B",
"5. c #998889",
"6. c #9E9289",
"7. c #9E9090",
"8. c #9E9993",
"9. c #A18581",
"0. c #A38B84",
"q. c #AA8E86",
"w. c #A38D8A",
"e. c #AA8E8A",
"r. c #A5928C",
"t. c #AC928C",
"y. c #AA968A",
"u. c #B2958E",
"i. c #B49A8E",
"p. c #A59292",
"a. c #AB9692",
"s. c #A69B93",
"d. c #AD9A94",
"f. c #AD9C9C",
"g. c #A79A99",
"h. c #B19691",
"j. c #B39A94",
"k. c #B99C96",
"l. c #B39D9A",
"z. c #BA9E9A",
"x. c #B89790",
"c. c #B4A19D",
"v. c #BBA39C",
"b. c #BAA397",
"n. c #A9A097",
"m. c #AEA4A5",
"M. c #B4A5A3",
"N. c #BBA5A2",
"B. c #BEA9A3",
"V. c #BCACAC",
"C. c #B6A9A7",
"Z. c #BCB3AF",
"A. c #BBB1A6",
"S. c #BDB4B1",
"D. c #C2A59D",
"F. c #C4AB9E",
"G. c #C8AE9F",
"H. c #C7B09E",
"J. c #C2A6A2",
"K. c #C3ABA4",
"L. c #C9ADA4",
"P. c #C3AEAA",
"I. c #CBAEAA",
"U. c #CCB2A5",
"Y. c #C5B2AC",
"T. c #CCB3AC",
"R. c #C5B6A7",
"E. c #D1B5AC",
"W. c #D3B9AD",
"Q. c #D0B9A7",
"!. c #C4B3B2",
"~. c #CBB5B2",
"^. c #CDB9B5",
"/. c #CBBBB9",
"(. c #C3B9B8",
"). c #D1B5B1",
"_. c #D3BBB5",
"`. c #D9BDB5",
"'. c #D4BDBA",
"]. c #DABEBB",
"[. c #DCC2B5",
"{. c #D4C3BD",
"}. c #DBC2BD",
"|. c #D2C0B6",
" X c #E2C7BB",
".X c #E1C9BE",
"XX c #D6C4C3",
"oX c #DCC6C2",
"OX c #DDCBC5",
"+X c #D6CBC9",
"@X c #E1C6C2",
"#X c #E3CBC4",
"$X c #E5CDC9",
"%X c #E9CDC6",
"&X c #E5D2CC",
"*X c #EBD4CC",
"=X c #F0D9CF",
"-X c #F1D6CF",
";X c #E4D5D2",
":X c #EBD6D2",
">X c #EDD9D4",
",X c #EFDBDA",
"<X c #F4DCD5",
"1X c #F2DEDA",
"2X c #FBDEDA",
"3X c #F4E0D5",
"4X c #F5E1DB",
"5X c #FAE5DD",
"6X c #FFEADF",
"7X c #FBE7E0",
"8X c #FDEAE3",
"9X c #FFF0E9",
"0X c #FFF6F0",
"qX c None",
/* pixels */
"qXqXqXqXqXqXqXqXqXqXqXqXqXqXqXqXqXqXqXqXqXqXqXqXqXqXqXqXqXqXqXqXqXqXqXqXqXqXqXqXqXqXqXqXqXqXqXqXqXqXqXqXqXqXqXqXqXqXqXqXqXqXqXqX",
"qXqXqXqXqXqXqXqXqXqXqXqXqXqXqXqXqXqXqXqXqXqXqXqXqXqXqXqXqXqXqXqXqXqXqXqXqXqXqXqXqXqXqXqXqXqXqXqXqXqXqXqXqXqXqXqXqXqXqXqXqXqXqXqX",
"qXqXqXqXqXqXqXqXqXqXqXqXqXqXqXqXqXqXqXqXqXqXqXqXqXqXqXqXqXqXqXqXqXqXqXqXqXqXqXqXqXqXqXqXqXqXqXqXqXqXqXqXqXqXqXqXqXqXqXqXqXqXqXqX",
"qXqXqXqXqXqXqXqXqXqXqXqXqXqXqXqXqXqXqXqXqXqXqXqXqXqXqXqXqXqXqXqXqXqXqXqXqXqXqXqXqXqXqXqXqXqXqXqXqXqXqXqXqXqXqXqXqXqXqXqXqXqXqXqX",
"qXqXqXqXqXqXqXqXqXqXqXqXqXqXqXqXqXqXqXqXqXqXqXqXqXqXqXqXqXqXqXqXqXqXqXqXqXqXqXqXqXqXqXqXqXqXqXqXqXqXqXqXqXqXqXqXqXqXqXqXqXqXqXqX",
"qXqXqXqXqXqXqXqXqXqXqXqXqXqXqXqXqXqXqXqXqXqXqXqXqXqXqXqXqXqXqXqXqXqXqXqXqXqXqXqXqXqXqXqXqXqXqXqXqXqXqXqXqXqXqXqXqXqXqXqXqXqXqXqX",
"qXqXqXqXqXqXqXqXqXqXqXqXqXqXqXqXqXqXqXqXqXqXqXqXqXqXqXqX{.n.A.qXqXqXqXqXqXqXqXqXqXqXqXqXqXqXqXqXqXqXqXqXqXqXqXqXqXqXqXqXqXqXqXqX",
"qXqXqXqXqXqXqXqXqXqXqXqXqXqXqXqXqXqXqXqXqXqXqXqXqXqXqXqX&.6.R.qXqXqXqXqXqXqXqXqXqXqXqXqXqXqXqXqXqXqXqXqXqXqXqXqXqXqXqXqXqXqXqXqX",
"qXqXqXqXqXqXqXqXqXqXqXqXqXqXqXqXqXqXqXqXqXqXqXqXqXqXC.| y.6.g * qXqXqXqXqXqXqXqXqXqXqXqXqXqXqXqXqXqXqXqXqXqXqXqXqXqXqXqXqXqXqXqX",
"qXqXqXqXqXqXqXqXqXqXqXqXqXqXqXqXqXqXqXqXqXqXqXqXqXqXqXE g u c * qXqXqXqXqXqXqXqXqXqXqXqXqXqXqXqXqXqXqXqXqXqXqXqXqXqXqXqXqXqXqXqX",
"qXqXqXqXqXqXqXqXqXqXqXqXqXqXqXqXqXqXqXqXqXqXqXqXqXqXqXqX% Q n y.n.qXqXqXqXqXqXqXqXqXqXqXqXqXqXqXqXqXqXqXqXqXqXqXqXqXqXqXqXqXqXqX",
"qXqXqXqXqXqXqXqXqXqXqXqXqXqXqXqXqXqXqXqXqXqXqXqXqXqXqXqX> &.% %.Q qXqXqXqXqXqXqXqXqXqXqXqXqXqXqXqXqXqXqXqXqXqXqXqXqXqXqXqXqXqXqX",
"qXqXqXqXqXqXqXqXqXqXqXqXqXqXqXqXqXqXqXqXqXqXqXqXqXqXqXqXG B Z 6.s.G qXqXqXqXqXqXqXqXqXqXqXqXqXqXqXqXqXqXqXqXqXqXqXqXqXqXqXqXqXqX",
"qXqXqXqXqXqXqXqXqXqXqXqXqXqXqXqXqXqXqXqXqXqXqXqXqXqXqXqXqXi H Z.c.g qXqXqXqXqXqXqXqXqXqXqXqXqXqXqXqXqXqXqXqXqXqXqXqXqXqXqXqXqXqX",
"qXqXqXqXqXqXqXqXqXqXqXqXqXqXqXqXqXqXqXqXqXqXqXqXqXqXqXqXqXT H C.C.2.! qXqXqXqXqXqXqXqXqXqXqXqXqXqXqXqXqXqXqXqXqXqXqXqXqXqXqXqXqX",
"qXqXqXqXqXqXqXqXqXqXqXqXqXqXqXqXqXqXqXqXqXqXqXqXqXqXqXqXqXqX! B %.$.qXqXqXqXqXqXqXqXqXqXqXqXqXqXqXqXqXqXqXqXqXqXqXqXqXqXqXqXqXqX",
"qXqXqXqXqXqXqXqXqXqXqXqXqXqXqXqXqXqXqXqXqXqXqXqXqXqXqXqXqXqXT f 2...qXqXqXqXqXqXqXqXqXqXqXqXqXqXqXqXqXqXqXqXqXqXqXqXqXqXqXqXqXqX",
"qXqXqXqXqXqXqXqXqXqXqXqXqXqXqXqXqXqXqXqXqXqXqXqXqXqXqXqXqXqXqXqXqXqXqXqXqXqXqXqXqXqXqXqXqXqXqXqXqXqXqXqXqXqXqXqXqXqXqXqXqXqXqXqX",
"qXqXqXqXqXqXqXqXqXqXqXqXqXqXqXqXqXqXqXqXqXqXqXqXqXqXqXqXqXqXqXqXqXqXqXqXqXqXqXqXqXqXqXqXqXqXqXqXqXqXqXqXqXqXqXqXqXqXqXqXqXqXqXqX",
"qXqXqXqXqXqXqXqXqXqXqXqXqXqXqXqXqXqXqXqXqXqXqXqXqXqXqXqXqXqXqXqXqXqXqXqXqXqXqXqXqXqXqXqXqXqXqXqXqXqXqXqXqXqXqXqXqXqXqXqXqXqXqXqX",
"qXqXqXqXqXqXqXqXqXqXqXqXqXqXqXqXqXqXqXqXqXqXqXqXqXqXqXqXqXqXqXqXqX9 d : = C : @ ! qXm.qXqXqXqXqXqXqXqXqXqXqXqXqXqXqXqXqXqXqXqXqX",
"qXqXqXqXqXqXqXqXqXqXqXqXqXqXqXqXqXqXqXqXqXqXqXqXqXqXqXqXqXqXqXqX= : I Z...i ,   i 9 A qXqXqXqXqXqXqXqXqXqXqXqXqXqXqXqXqXqXqXqXqX",
"qXqXqXqXqXqXqXqXqXqXqXqXqXqXqXqXqXqXqXqXqXqXqXqXqXqXqXqXqXqXqXj C 7.f.P j I R i : : = i qXqXqXqXqXqXqXqXqXqXqXqXqXqXqXqXqXqXqXqX",
"qXqXqXqXqXqXqXqXqXqXqXqXqXqXqXqXqXqXqXqXqXqXqXqXqXqXqXqXqXP ,.5.7...<...C.f.V.7...P   O @ qXqXqXqXqXqXqXqXqXqXqXqXqXqXqXqXqXqXqX",
"qXqXqXqXqXqXqXqXqXqXqXqXqXqXqXqXqXqXqXqXqXqXqXqXqXqXqXqX2.%...H h I d 8 i !.V.,.p.f.p.=   X = qXqXqXqXqXqXqXqXqXqXqXqXqXqXqXqXqX",
"qXqXqXqXqXqXqXqXqXqXqXqXqXqXqXqXqXqXqXqXqXqXqXqXqXqXf.2.H v ,.XXXX!.<.a d P.!.5.I } 4.m.Z .   X qXqXqXqXqXqXqXqXqXqXqXqXqXqXqXqX",
"qXqXqXqXqXqXqXqXqXqXqXqXqXqXqXqXqXqXqXqXqXqXqXqXqXg.! 8 H ^.;X4X,XXXP.d w M.I.@.:X8 d.Y.g...@ + o & qXqXqXqXqXqXqXqXqXqXqXqXqXqX",
"qXqXqXqXqXqXqXqXqXqXqXqXqXqXqXqXqXqXqXqXqXqXqXqX6.v c  .OX9X0X&X^.^.oXU a ).@Xl.S N.P.c.z a.}   o o O r ,.,.qXqXqXqXqXqXqXqXqXqX",
"qXqXqXqXqXqXqXqXqXqXqXqXqXqXqXqXqXqXqXqXqXqXqX&./ v ;.4X5X7X5X*XK.P._.o.z _.].J.z.z.T.F c.Y &.| o o O $.! C qXqXqXqXqXqXqXqXqXqX",
"qXqXqXqXqXqXqXqXqXqXqXqXqXqXqXqXqXqXqXqXqXqX;.J N ;.|.#X3X9X9X%X'.z.v.q.o.].I.k.z.x.-.v.OXu u 6.Q - ! Q P Z.qXqXqXqXqXqXqXqXqXqX",
"qXqXqXqXqXqXqXqXqXqXqXqXqXqXqXqXqXqXqXqXqXqXJ B K y.|.3X6X6X=X=X).0.#.q.x.`.I.x.x.D.^ &X#X;.u s s.$.H H 8.$.qXqXqXqXqXqXqXqXqXqX",
"qXqXqXqXqXqXqXqXqXqXqXqXqXqXqXqXqXqXqXqXqXW t ] ;.i.U.[.}.3X5X=XK.] ~ o.x.I.E.J.q.F.;..X*X%XL * t 2.Q 2.E qXqXqXqXqXqXqXqXqXqXqX",
"qXqXqXqXqXqXqXqXqXqXqXqXqXqXqXqXqXqXqXqXqXr L H.D.Q.Q. X X.X%X}.*.y 4 ' D.E.U.v.k.L.) L.`. XF.y q =.=...qXqXqXqXqXqXqXqXqXqXqXqX",
"qXqXqXqXqXqXqXqXqXqXqXqXqXqXqXqXqXqXqXqXE u n H.F.Q.U.U.[..XW.>.c l K z.K.t.0.e.k.e.D x.L.@X X>.4 d r.5 qXqXqXqXqXqXqXqXqXqXqXqX",
"qXqXqXqXqXqXqXqXqXqXqXqXqXqXqXqXqXqXqXqX&., c >.F.H.G.Q.[.W.x.+.j.U.K.v.u.J.K.z.e.+.k _ q.I.[.[.a t R F qXqXqXqXqXqXqXqXqXqXqXqX",
"qXqXqXqXqXqXqXqXqXqXqXqXqXqXqXqXqXqXqX|.A.L u u >.i.U.[.W.D.u.t.q.:.O.:.:.#.9.e.+.o.q q ^ q.k.-XU 1 5 M.qXqXqXqXqXqXqXqXqXqXqXqX",
"qXqXqXqXqXqXqXqXqXqXqXqXqXqXqXqXqXqXqX|.;XY.6.c u [ H.Q.b.>.q.q.9.q.x.J.L.e.e.z.#.#.l 0 x [ t.*XN.; 5 <.C qXqXqXqXqXqXqXqXqXqXqX",
"qXqXqXqXqXqXqXqXqXqXqXqXqXqXqXqXqXqXqX! OXOXU.}.D.*.[ [ 0.j.k.D.z.J.I.x.z.j.v.h.9.#._ l y L q.}.<X( 1 d V.qXqXqXqXqXqXqXqXqXqXqX",
"qXqXqXqXqXqXqXqXqXqXqXqXqXqXqXqXqXqXqX+X .oX`.U.[.G.Q.Q.v.:.e.].I.k.z.).@XI.).I.j.e.O.~ y k q.K.:X'.1 6 !.qXqXqXqXqXqXqXqXqXqXqX",
"qXqXqXqXqXqXqXqXqXqXqXqXqXqXqXqXqXqXj (.-.K.D.F.F.D.G.G.h.9.e.~.z.D.I.]._.].].I.J.z.:.[ x k ;.z.oX%XR 1 f.qXqXqXqXqXqXqXqXqXqXqX",
"qXqXqXqXqXqXqXqXqXqXqXqXqXqXqXqXqXqXh { p.B.j.v.F.x.`.E.*.h.K.J.J.I.).].].@X@X$XJ.N.h.@._ w k J.'.oX( 5 M.qXqXqXqXqXqXqXqXqXqXqX",
"qXqXqXqXqXqXqXqXqXqXqXqXqXqXqXqXqXqX7.M.!.T.y.j.L.U.L.u.u.a.e.a.I.I.`.%X@X@X].].I.N.z.O.' k y [ '.].'.w B qXqXqXqXqXqXqXqXqXqXqX",
"qXqXqXqXqXqXqXqXqXqXqXqXqXqXqXqXqXqXV.!.M.K.j.b.u.u.t.u.).N.j.l.].].].@X$X@X].].I.h.l.@.' a w F 9.K.$XZ F C.qXqXqXqXqXqXqXqXqXqX",
"qXqXqXqXqXqXqXqXqXqXqXqXqXqXqXqXqXqXM.g. .a.K.t.:.D O.0.K.l.N.B.].].@X*X:X$X].'.J.h.p.o.F b q 2 e.N.oXl.qXqXqXqXqXqXqXqXqXqXqXqX",
"qXqXqXqXqXqXqXqXqXqXqXqXqXqXqXqXqXqXR h 8 w / z.u.[ r.9.v.B.N.!.'.XX*X1X2X:X'.P.f.N.w.o.F w./ a M O.} p.a.qXqXqXqXqXqXqXqXqXqXqX",
"qXqXqXqXqXqXqXqXqXqXqXqXqXqXqXqXqXqX;Xa.p.U 0 4 S ) e.U d.Y.w.M./.oX:X1X4X:X'.J.l.l.1.#./ 9.9.a.' y 2 z qXqXqXqXqXqXqXqXqXqXqXqX",
"qXqXqXqXqXqXqXqXqXqXqXqXqXqXqXqXqXqXXXOX1X'./ w < z #.( l.Y.d.P.'.OX>X;X:XOX/.c.N.w.@.) F S / e.I.J.l.1.g.qXqXqXqXqXqXqXqXqXqXqX",
"qXqXqXqXqXqXqXqXqXqXqXqXqXqXqXqXqXqXR XX;X$X#.k 4 < ( O.1.r.f.~.'.$X,X&X&XXX!.a.w.1.@.F } O.O.U p.e.p.1.qXqXqXqXqXqXqXqXqXqXqXqX",
"qXqXqXqXqXqXqXqXqXqXqXqXqXqXqXqXqXqXd V.*X}.).) 2 0 S / =.d.X./.XXXX]./.I.f.l.w.1.4.@./ 0.' K.j./ 9.l.` qXqXqXqXqXqXqXqXqXqXqXqX",
"qXqXqXqXqXqXqXqXqXqXqXqXqXqXqXqXqXqXv 4.oX$X@Xe.0 q 2 o.=.=.7.6.!.!.!.).V.5.w.5.<.U ( U r.( 0.K.9.J.p.<.qXqXqXqXqXqXqXqXqXqXqXqX",
"qXqXqXqXqXqXqXqXqXqXqXqXqXqXqXqXqXqXv R B.$X_.q._ < y 9.` d.c.f.N.M.f.f.p.#.p.f.w.X.N / r.a.j.Y.h.a.p./.qXqXqXqXqXqXqXqXqXqXqXqX",
"qXqXqXqXqXqXqXqXqXqXqXqXqXqXqXqXqXqXp F 1.oX_.t.x 0 0 U ' ` g.c.5.5.9.w.5.<.#.X.} / / 0.N.@X}.oX_.).9.@.qXqXqXqXqXqXqXqXqXqXqXqX",
"qXqXqXqXqXqXqXqXqXqXqXqXqXqXqXqXqXqXqXV U ~.<X#XM M M ; e.( } 5.9.1.<.9.9.5.1.@.<.z / z z ' d.P.$XB.l.4.qXqXqXqXqXqXqXqXqXqXqXqX",
"qXqXqXqXqXqXqXqXqXqXqXqXqXqXqXqXqXqXqXV S e.2X2Xh.~ y 0 6 l.F } h.5.@.p.p.5.@.X.( ( F F S J v.F b p.oXM.qXqXqXqXqXqXqXqXqXqXqXqX",
"qXqXqXqXqXqXqXqXqXqXqXqXqXqXqXqXqXqXqXN N } ].-X%X_ l 0 0 z N.} / F I #.5.1.} } } w.z F ] =.K.S y y R M.qXqXqXqXqXqXqXqXqXqXqXqX",
"qXqXqXqXqXqXqXqXqXqXqXqXqXqXqXqXqXqXqXa z ) L.<X%Xo.M x 0 w X.N.w.X./ N z F ` 1.<.F U ( r.B.;.n.z 8 6 f.qXqXqXqXqXqXqXqXqXqXqXqX",
"qXqXqXqXqXqXqXqXqXqXqXqXqXqXqXqXqXqXqXqXt S 0.oX XU.+.M b y @.;.5.I.P.~./.9.` F N  .j.P.OXT.r.Y.( w N <.qXqXqXqXqXqXqXqXqXqXqXqX",
"qXqXqXqXqXqXqXqXqXqXqXqXqXqXqXqXqXqXqXqXa c _ _. X`.q.D b b v.K 9.5.<.w.1.k V F J y.^.$X>X^.y.v.Y.6 X.j qXqXqXqXqXqXqXqXqXqXqXqX",
"qXqXqXqXqXqXqXqXqXqXqXqXqXqXqXqXqXqXqXqXqXm ' 0.[.K.U.+.S K P.~ h.l.l.].9.k N N -.Y.&X;X&XOX{.{.XXN 7.qXqXqXqXqXqXqXqXqXqXqXqXqX",
"qXqXqXqXqXqXqXqXqXqXqXqXqXqXqXqXqXqXqXqXg.V Y / b.U.%Xt.L O.J.] h.P.z.).F a F R =.^.6X5X3X8X5X=X1.<.I qXqXqXqXqXqXqXqXqXqXqXqXqX",
"qXqXqXqXqXqXqXqXqXqXqXqXqXqXqXqXqXqXqXqXY.| t L ' #X*X:.x u.Q.[ h.B.v.b.U b r.B.r.~.5X5X4X9X3X{.Y  .; qXqXqXqXqXqXqXqXqXqXqXqXqX",
"qXqXqXqXqXqXqXqXqXqXqXqXqXqXqXqXqXqXqXqXE A.J u L R.G.~ M D.L.q.j.t.K.y.e.N a.K.B.^.&X3X8X8X|.4.<.7 . qXqXqXqXqXqXqXqXqXqXqXqXqX",
"qXqXqXqXqXqXqXqXqXqXqXqXqXqXqXqXqXqXqXqXqXs.d.n S *.x.L ^ L.D.U.}.R.Y.0.K.' 3.c.n._.&X8X8X{.d.] @.+ . qXqXqXqXqXqXqXqXqXqXqXqXqX",
"qXqXqXqXqXqXqXqXqXqXqXqXqXqXqXqXqXqXqXqXqX> d.b.m *.D.^ +.L._.K._.W.v.0.K.d.O.3.b.&X$X:X~.=.y.d.N $ qXqXqXqXqXqXqXqXqXqXqXqXqXqX"
};
