/* XPM */
static char *result[] = {
/* columns rows colors chars-per-pixel */
"64 64 227 2 ",
"   c #0E0100",
".  c #120400",
"X  c #150902",
"o  c #1A0C04",
"O  c #150C0A",
"+  c #1A0D0B",
"@  c #1C120B",
"#  c #18120A",
"$  c #1D1614",
"%  c #1E1A1A",
"&  c #1A1611",
"*  c #200D09",
"=  c #22140D",
"-  c #271A0D",
";  c #3E1B0B",
":  c #251613",
">  c #251A11",
",  c #2B1C14",
"<  c #241B1A",
"1  c #2A1D1B",
"2  c #2C1412",
"3  c #331F15",
"4  c #2B2113",
"5  c #2B211C",
"6  c #24201F",
"7  c #33221C",
"8  c #38271A",
"9  c #2B1E22",
"0  c #271E23",
"q  c #321F21",
"w  c #2B2323",
"e  c #2B2727",
"r  c #332523",
"t  c #342924",
"y  c #3B2B24",
"u  c #33262A",
"i  c #342D2C",
"p  c #3A2B2C",
"a  c #3F3226",
"s  c #3C332C",
"d  c #33302C",
"f  c #3D2E31",
"g  c #3D3634",
"h  c #3C3839",
"j  c #373435",
"k  c #441E11",
"l  c #432D1B",
"z  c #45281A",
"x  c #462D25",
"c  c #502E22",
"v  c #43342C",
"b  c #4B342C",
"n  c #46392D",
"m  c #4E3B2C",
"M  c #483525",
"N  c #583C2E",
"B  c #412E30",
"V  c #443534",
"C  c #4B3533",
"Z  c #453932",
"A  c #4C3B35",
"S  c #453C3C",
"D  c #4C3C3B",
"F  c #493739",
"G  c #523D36",
"H  c #5B3D30",
"J  c #533E3B",
"K  c #5A3D3A",
"L  c #543733",
"P  c #58412E",
"I  c #4D4035",
"U  c #46413C",
"Y  c #4E423C",
"T  c #544335",
"R  c #53433C",
"E  c #5A433D",
"W  c #55493E",
"Q  c #5A4A3E",
"!  c #644336",
"~  c #634B3C",
"^  c #644B35",
"/  c #4D3E41",
"(  c #523F41",
")  c #4E4642",
"_  c #4E4945",
"`  c #4E4A4A",
"'  c #464243",
"]  c #544343",
"[  c #594643",
"{  c #554A43",
"}  c #5B4C45",
"|  c #554D4B",
" . c #5C4D4B",
".. c #54464A",
"X. c #5D514C",
"o. c #5F4F50",
"O. c #5C5552",
"+. c #5D5A54",
"@. c #5A5654",
"#. c #624B46",
"$. c #644E4B",
"%. c #644B46",
"&. c #655245",
"*. c #63534B",
"=. c #6A534D",
"-. c #6B5A4C",
";. c #685849",
":. c #73594A",
">. c #634F51",
",. c #645353",
"<. c #6A5653",
"1. c #655954",
"2. c #6B5A54",
"3. c #665E5C",
"4. c #6C5E5B",
"5. c #645459",
"6. c #725B55",
"7. c #725D5A",
"8. c #785C55",
"9. c #6C6157",
"0. c #6D625D",
"q. c #66635D",
"w. c #726152",
"e. c #73645D",
"r. c #7B635E",
"t. c #7A695D",
"y. c #76685B",
"u. c #7F705B",
"i. c #715E62",
"p. c #6E6562",
"a. c #696665",
"s. c #726462",
"d. c #7B6661",
"f. c #756A63",
"g. c #7B6B65",
"h. c #726B6A",
"j. c #7B6C6A",
"k. c #72666A",
"l. c #75716D",
"z. c #7D726C",
"x. c #766F72",
"c. c #7D7A74",
"v. c #797574",
"b. c #826859",
"n. c #88745F",
"m. c #826D65",
"M. c #806B68",
"N. c #847265",
"B. c #83736B",
"V. c #8A756D",
"C. c #8A7968",
"Z. c #95786A",
"A. c #857573",
"S. c #847A73",
"D. c #8C7C74",
"F. c #837C79",
"G. c #897F7A",
"H. c #877676",
"J. c #917D78",
"K. c #9D7F75",
"L. c #A27C70",
"P. c #8E8075",
"I. c #85817C",
"U. c #8C837C",
"Y. c #9A8274",
"T. c #9E8A76",
"R. c #96857B",
"E. c #9C867C",
"W. c #9B8B7C",
"Q. c #95877A",
"!. c #9F907B",
"~. c #97806E",
"^. c #A38575",
"/. c #A4897B",
"(. c #A9917D",
"). c #868381",
"_. c #8A8384",
"`. c #8C8A89",
"'. c #928584",
"]. c #958983",
"[. c #9C8C85",
"{. c #948D8A",
"}. c #9A8D8A",
"|. c #999087",
" X c #9D928B",
".X c #93908F",
"XX c #9C9894",
"oX c #A68F83",
"OX c #AC9684",
"+X c #A3948B",
"@X c #AE9B8D",
"#X c #A79485",
"$X c #B49285",
"%X c #B29A8C",
"&X c #B49984",
"*X c #AC9C95",
"=X c #A29E9C",
"-X c #A99999",
";X c #BA9E93",
":X c #AAA29C",
">X c #B2A49B",
",X c #BBA996",
"<X c #BCA68F",
"1X c #A99EA2",
"2X c #ACA7A6",
"3X c #B5ACA8",
"4X c #B6B4AD",
"5X c #BDB9B9",
"6X c #B7AEB0",
"7X c #C1998D",
"8X c #C5A999",
"9X c #CBB49E",
"0X c #D1AB9E",
"qX c #C9B8AA",
"wX c #D5BCAC",
"eX c #DABAAB",
"rX c #C3B5B3",
"tX c #C8B9B7",
"yX c #CDADA2",
"uX c #DFC7AF",
"iX c #DAC5B6",
"pX c #E6CFB8",
"aX c #CCC1C4",
"sX c #D3CBCB",
"dX c #D6D5CF",
"fX c #E0D4D2",
"gX c None",
/* pixels */
"gXgXgXgXgXgXgXgXgXgXgXgXgXgXgXgXgXgXgXgXgXgXgXgXgXgXgXgXgXgXgXgXgXgXgXgXgXgXgXgXgXgXgXgXgXgXgXgXgXgXgXgXgXgXgXgXgXgXgXgXgXgXgXgX",
"gXgXgXgXgXgXgXgXgXgXgXgXgXgXgXgXgXgXgXgXgXgXgXgXgXgXgXgXgXgXgXgXgXgXgXgXgXgXgXgXgXgXgXgXgXgXgXgXgXgXgXgXgXgXgXgXgXgXgXgXgXgXgXgX",
"gXgXgXgXgXgXgXgXgXgXgXgXgXgXgXgXgXgXgXgXgXgXgXgXgXgXgXgXgXgXgXgX,X,XqX,XgXgXgXgXgXgXgXgXgXgXgXgXgXgXgXgXgXgXgXgXgXgXgXgXgXgXgXgX",
"gXgXgXgXgXgXgXgXgXgXgXgXgXgXgXgXgXgXgXgXgXgXgXgXgXgXgXgXgXgX+X!.@X<XuX8XwXgXgXgXgXgXgXgXgXgXgXgXgXgXgXgXgXgXgXgXgXgXgXgXgXgXgXgX",
"gXgXgXgXgXgXgXgXgXgXgXgXgXgXgXgXgXgXgXgXgXgXgXgXgXgXgXgXgXgX+XP.oX$X7X$XyXwXgXgXgXgXgXgXgXgXgXgXgXgXgXgXgXgXgXgXgXgXgXgXgXgXgXgX",
"gXgXgXgXgXgXgXgXgXgXgXgXgXgXgXgXgXgXgXgXgXgXgXgXgXgXgXgXgX X|.P.^./.L.0XeXyXgXgXgXgXgXgXgXgXgXgXgXgXgXgXgXgXgXgXgXgXgXgXgXgXgXgX",
"gXgXgXgXgXgXgXgXgXgXgXgXgXgXgXgXgXgXgXgXgXgXgXgXgXgXgXgXgX|.| Q 8.b.L.7X$XyXgXgXgXgXgXgXgXgXgXgXgXgXgXgXgXgXgXgXgXgXgXgXgXgXgXgX",
"gXgXgXgXgXgXgXgXgXgXgXgXgXgXgXgXgXgXgXgXgXgXgXgXgXgXgXgXgXXX# @ 3 N ! k ; H gXgXgXgXgXgXgXgXgXgXgXgXgXgXgXgXgXgXgXgXgXgXgXgXgXgX",
"gXgXgXgXgXgXgXgXgXgXgXgXgXgXgXgXgXgXgXgXgXgXgXgXgXgXgXgXgXI.> & d.Z.K.c ; z gXgXgXgXgXgXgXgXgXgXgXgXgXgXgXgXgXgXgXgXgXgXgXgXgXgX",
"gXgXgXgXgXgXgXgXgXgXgXgXgXgXgXgXgXgXgXgXgXgXgXgXgXgXgXgXgX4Xq.f.j.7 <.$Xb.Z.P gXgXgXgXgXgXgXgXgXgXgXgXgXgXgXgXgXgXgXgXgXgXgXgXgX",
"gXgXgXgXgXgXgXgXgXgXgXgXgXgXgXgXgXgXgXgXgXgXgXgXgXgXgXgXgX.Xd U 4.r %.;XZ.^.w.gXgXgXgXgXgXgXgXgXgXgXgXgXgXgXgXgXgXgXgXgXgXgXgXgX",
"gXgXgXgXgXgXgXgXgXgXgXgXgXgXgXgXgXgXgXgXgXgXgXgXgXgXgXgXgXgX_ c.@.}.;X%X:.H gXgXgXgXgXgXgXgXgXgXgXgXgXgXgXgXgXgXgXgXgXgXgXgXgXgX",
"gXgXgXgXgXgXgXgXgXgXgXgXgXgXgXgXgXgXgXgXgXgXgXgXgXgXgXgXgXgX@.XXO.}.tX7X! z gXgXgXgXgXgXgXgXgXgXgXgXgXgXgXgXgXgXgXgXgXgXgXgXgXgX",
"gXgXgXgXgXgXgXgXgXgXgXgXgXgXgXgXgXgXgXgXgXgXgXgXgXgXgXgXgXgXq.I.).>XqXK.! c gXgXgXgXgXgXgXgXgXgXgXgXgXgXgXgXgXgXgXgXgXgXgXgXgXgX",
"gXgXgXgXgXgXgXgXgXgXgXgXgXgXgXgXgXgXgXgXgXgXgXgXgXgXgXgXgXgX4X5Xc.G.[.L.^.H gXgXgXgXgXgXgXgXgXgXgXgXgXgXgXgXgXgXgXgXgXgXgXgXgXgX",
"gXgXgXgXgXgXgXgXgXgXgXgXgXgXgXgXgXgXgXgXgXgXgXgXgXgXgXgXgXgXdX2XY 9.V.Z.K.:.gXgXgXgXgXgXgXgXgXgXgXgXgXgXgXgXgXgXgXgXgXgXgXgXgXgX",
"gXgXgXgXgXgXgXgXgXgXgXgXgXgXgXgXgXgXgXgXgXgXgXgXgXgXgXgXgXgXgXG.{ z.|.N.&.gXgXgXgXgXgXgXgXgXgXgXgXgXgXgXgXgXgXgXgXgXgXgXgXgXgXgX",
"gXgXgXgXgXgXgXgXgXgXgXgXgXgXgXgXgXgXgXgXgXgXgXgXgXgXgXgXgXgXgXgX) n W r gXgXgXgXgXgXgXgXgXgXgXgXgXgXgXgXgXgXgXgXgXgXgXgXgXgXgXgX",
"gXgXgXgXgXgXgXgXgXgXgXgXgXgXgXgXgXgXgXgXgXgXgXgXgXgXgXgXgXgXgXgXi t 5 X = gXgXgXgXgXgXgXgXgXgXgXgXgXgXgXgXgXgXgXgXgXgXgXgXgXgXgX",
"gXgXgXgXgXgXgXgXgXgXgXgXgXgXgXgXgXgXgXgXgXgXgXgXgXgXgXgXgXgXgXu w d + + . 1 gXgXgXgXgXgXgXgXgXgXgXgXgXgXgXgXgXgXgXgXgXgXgXgXgXgX",
"gXgXgXgXgXgXgXgXgXgXgXgXgXgXgXgXgXgXgXgXgXgXgXgXgXgXgXgXgXgXe < e u i S O 1.j.gXgXgXgXgXgXgXgXgXgXgXgXgXgXgXgXgXgXgXgXgXgXgXgXgX",
"gXgXgXgXgXgXgXgXgXgXgXgXgXgXgXgXgXgXgXgXgXgXgXgXgXgXgXgXgXd > w w 0 t w F.].O.V 3XgXgXgXgXgXgXgXgXgXgXgXgXgXgXgXgXgXgXgXgXgXgXgX",
"gXgXgXgXgXgXgXgXgXgXgXgXgXgXgXgXgXgXgXgXgXgXgXgXgXgXgXgX3.i $ < < O O < [.A.0.r l.gXgXgXgXgXgXgXgXgXgXgXgXgXgXgXgXgXgXgXgXgXgXgX",
"gXgXgXgXgXgXgXgXgXgXgXgXgXgXgXgXgXgXgXgXk.` h e i j S g e g u < : w Z } N.3XS.X. .gXgXgXgXgXgXgXgXgXgXgXgXgXgXgXgXgXgXgXgXgXgXgX",
"gXgXgXgXgXgXgXgXgXgXgXgXgXgXgXgXgXgXgX6Xa.% % e e % j h g g p { ) g.iXiXU.W ;.Q v gXgXgXgXgXgXgXgXgXgXgXgXgXgXgXgXgXgXgXgXgXgXgX",
"gXgXgXgXgXgXgXgXgXgXgXgXgXgXgXgXgXgX2XsX5Xh h ` d e 0 ` < w 5 u W W.@X,XOX8 &.n.A gXgXgXgXgXgXgXgXgXgXgXgXgXgXgXgXgXgXgXgXgXgXgX",
"gXgXgXgXgXgXgXgXgXgXgXgXgXgXgXgXgX).I.`.x.@.e d % d j e _ i u 5 4 u.iXuX9X:.Z.N.2.gXgXgXgXgXgXgXgXgXgXgXgXgXgXgXgXgXgXgXgXgXgXgX",
"gXgXgXgXgXgXgXgXgXgXgXgXgXgXgXgXgX`.h.d d ' d % & ' ' % > d h.G.N.;.n.9XuX^ l l V.gXgXgXgXgXgXgXgXgXgXgXgXgXgXgXgXgXgXgXgXgXgXgX",
"gXgXgXgXgXgXgXgXgXgXgXgXgXgXgXgX2Xl.` gX& & e % d 6 x.+.q.) u s - 8 (.pXuX(.^ n.(.b gXgXgXgXgXgXgXgXgXgXgXgXgXgXgXgXgXgXgXgXgXgX",
"gXgXgXgXgXgXgXgXgXgXgXgXgXgXgXXXc.q.gXgXgX# & & ` @.w ` O.3.S.S.!.!.C.<X9X&XP N 4 7.gXgXgXgXgXgXgXgXgXgXgXgXgXgXgXgXgXgXgXgXgXgX",
"gXgXgXgXgXgXgXgXgXgXgXgXgXgX`.XXa.gXgXgXgXgX< 0 ` =X3.' u w < t a 4 P &X8X8X^ l ;.r.gXgXgXgXgXgXgXgXgXgXgXgXgXgXgXgXgXgXgXgXgXgX",
"gXgXgXgXgXgXgXgXgXgXgXgXgXgX.XI.gXgXgXgXgXgXgXw v.d h +.p.X.Y Y P w.T.(.^.(.:.~ #.E e.gXgXgXgXgXgXgXgXgXgXgXgXgXgXgXgXgXgXgXgXgX",
"gXgXgXgXgXgXgXgXgXgXgXgXgX.Xc.gXgXgXgXgXgXgXgXg U ].) 5 d Z I Q ;.8 P u.~.T.~.M b #.[.gXgXgXgXgXgXgXgXgXgXgXgXgXgXgXgXgXgXgXgXgX",
"gXgXgXgXgXgXgXgXgXgXgXgXXXh.gXgXgXgXgXgXgXgXgXgXS s +.z.y.{ n y I P u.(.!.T.@Xw.T R v gXgXgXgXgXgXgXgXgXgXgXgXgXgXgXgXgXgXgXgXgX",
"gXgXgXgXgXgXgXgXgXgXgX`.v.gXgXgXgXgXgXgXgXgXgXgX{.) 4 i R } z.y.P P I w.-./.@Xm - 3 R z.gXgXgXgXgXgXgXgXgXgXgXgXgXgXgXgXgXgXgXgX",
"gXgXgXgXgXgXgXgXgXgXc.x.gXgXgXgXgXgXgXgXgXgXgXgX3.p.p.g 4 8 - - - 8 T u.D.Y.@X&.+XD.} 0.gXgXgXgXgXgXgXgXgXgXgXgXgXgXgXgXgXgXgXgX",
"gXgXgXgXgXgXgXgXgXc.x.gXgXgXgXgXgXgXgXgXgXgXgXgXI.d Z 1.e.f.1.I 9.P.P.T N.2.Q.-.G -.7 ,.< gXgXgX{._._.gXgXgXgXgXgXgXgXgXgXgXgXgX",
"gXgXgXgXgXgXgXgX).k.gXgXgXgXgXgXgXgXgXgXgXgXgXgXgXI.X.5 s 1.y.W n } B.9.N.8 T E V.[.{ B.'.{.S.h.@...k.`.1X5XrXgXgXgXgXgXgXgXgXgX",
"gXgXgXgXgXgXgXz.h.+.gXgXgXgXgXgXgXgXgXgXgXgXgXgXgXU @.I.h.7 o > - I S.U.T * * , R 2.0.{ Y w < < 0 9 9 9 u / v.aXsXgXgXgXgXgXgXgX",
"gXgXgXgXgX1XG.3.p.gXgXgXgXgXgXgXgXgXgXgXgXgXgXgXgXh.5 w X.D.D.{ Y +.g.f.- o o * r *.2.A 4.Y 5 5 u p F f u 9 9 u v.fXgXgXgXgXgXgX",
"gXgXgXgXgX4XU.{ z.gXgXgXgXgXgXgXgXgXgXgXgXgXgXgXgXp.p.) t , A | Y { p.t .   o o , y 2.B.*.Z X.5 f p p B q q u f j ( 5X6XgXgXgXgX",
"gXgXgXgXU.0.|.S.z.gXgXgXgXgXgXgXgXgXgXgXgXgXgXgXgXgXS @.p.X.1 1 t Y 1.@ X . . ] } 3 ] j.X.v ] Z 1 r p 1 p 9 f B ( j / 5X1XgXgXgX",
"gXgXgXU.z.9.U.0.gXgXgXgXgXgXgXgXgXgXgXgXgXgXgXgXgXgX' @ i ) 1. .4.I.| @ X . = 2.y r v 2.e.A v 2.r u u p q f ( ../ u u / 6XgXgXgX",
"gXgX9.9.W f.gXgXgXgXgXgXgXgXgXgXgXgXgXgXgXgXgXgXgXgXgXd O @ + : V s.s <     r D C R ] *.,.v 7 Z $.r q B ] ..( ..f u f 0 @.aXgXgX",
"gXgXP.W _ gXgXgXgXgXgXgXgXgXgXgXgXgXgXgXgXgXgXgXgXgXgX@...1 + 1 3.X.r : X : } R J J R G A v v W [ 1.( D [ F B F F B B B F }.'.gX",
"gXP.w.X.gXgXgXgXgXgXgXgXgXgXgXgXgXgXgXgXgXgXgXgXgXgXgXgXg  .s.s.0.+.Y p :   R J $.R } v n Q v a  .e.D ] ( (  .( / F ( F ( >.rXgX",
";.u.;.gXgXgXgXgXgXgXgXgXgXgXgXgXgXgXgXgXgXgXgXgXgXgXgXgX< u ( ..F D D W r = [ [ D J R } *.B.-., 4 Y B.Z V i.'.$.( ( F ( ( F 1XgX",
"y.X.gXgXgXgXgXgXgXgXgXgXgXgXgXgXgXgXgXgXgXgXgXgXgXgXgXgX< # O . y V s.z.r D R <.A [.d.B.V.<.A 7 > > ].0.>.j.$.( F F ( F >.$.H.gX",
"W +.gXgXgXgXgXgXgXgXgXgXgXgXgXgXgXgXgXgXgXgXgXgXgXgXgXgXgX .V * B p ,.4.n p r y y P.3XW W n n n , R 1.Q.oX$.A A J G ] $.>.>.i.j.",
"+.gXgXgXgXgXgXgXgXgXgXgXgXgXgXgXgXgXgXgXgXgXgXgXgXgXgXgXR  .K 2 7 p | 2., 7 7 r n 2.qX1.n I x y W { n f.$.( G &.$.6.=.[ o.( i.5.",
"gXgXgXgXgXgXgXgXgXgXgXgXgXgXgXgXgXgXgXgXgXgXgXgXgXgXgXgXp.2.J x , r *.1.] *.2.n R #.D.B.} t.} } J G E e.8.6.M.V.2.K D ( $.( i.5.",
"gXgXgXgXgXgXgXgXgXgXgXgXgXgXgXgXgXgXgXgXgXgXgXgXgXgXgXz.*XB.7.7.g.V V ] 4.4.1.Z y } V.#XR R 8 G b v #.=.M.b.b.K #.%.%.J ( 5.H.gX",
"gXgXgXgXgXgXgXgXgXgXgXgXgXgXgXgXgXgXgXgXgXgXgXgXgXgXgXf.rX[.r.4.] y r r v } A r y y V.'.A C A E &.<.6.$.%.L K K %.=.$.[ >. .-XgX",
"gXgXgXgXgXgXgXgXgXgXgXgXgXgXgXgXgXgXgXgXgXgXgXgXgXgXgXgX>X|.*.G 1 : : o > 5 t y 7 v #.<.D #.<.#.6.%.K K K b L <.b.i.7.<.i.H.5.gX",
"gXgXgXgXgXgXgXgXgXgXgXgXgXgXgXgXgXgXgXgXgXgXgXgXgXgXgXgX*X+XR * X X o - Z } 2.7 A J.oXJ.d.2.<.<.[ K K K K L %.b.8.i.A.i.j.H.gXgX",
"gXgXgXgXgXgXgXgXgXgXgXgXgXgXgXgXgXgXgXgXgXgXgXgXgXgXgXgXN.R.C 2 o @ o s I 1.V.A R s.*XV.V.d.6.=.%.$.K L K =.M.8.J.M.7.,.i.gXgXgX",
"gXgXgXgXgXgXgXgXgXgXgXgXgXgXgXgXgXgXgXgXgXgXgXgXgXgXgXgXy R <.v o o # 8 W Q.9.z.*Xw. XD.m.m.w.=.6.$.<.=.d.7.d.j.M.j.5.'.gXgXgXgX",
"gXgXgXgXgXgXgXgXgXgXgXgXgXgXgXgXgXgXgXgXgXgXgXgXgXgXgXgXQ W g.d.#   > > I >Xz.P.g.2.[.S.6.J.2.2.6.$.4.B.[.D.j.0.i.j.j.gXgXgXgXgX",
"gXgXgXgXgXgXgXgXgXgXgXgXgXgXgXgXgXgXgXgXgXgXgXgXgXgXgX;.R G 7.G.t.# W 4 s |.Q.I } -.W.*X. , Q <.,. .X.0.j.k.s.p.i.gXgXgXgXgXgXgX",
"gXgXgXgXgXgXgXgXgXgXgXgXgXgXgXgXgXgXgXgXgXgXgXgXj.gXN.B.N.R S.B.9.I.t.t |.P.gXgXgXgX XfXD * gXgXgX| 5.p.s.k.gXgXgXgXgXgXgXgXgXgX",
"gXgXgXgXgXgXgXgXgXgXgXgXgXgXgXgXgXgXgXgXgXgXgXgXe.} m #.6.v R X.0.+.p.0.gXgXgXgXgXgX+XtX*XgXgXgXgXgXgXgXgXgXgXgXgXgXgXgXgXgXgXgX",
"gXgXgXgXgXgXgXgXgXgXgXgXgXgXgXgXgXgXgXgXgXgXgXgXg.#.m 7 gXgXgXgXgXgXgXgXgXgXgXgXgXgXgXXXtXgXgXgXgXgXgXgXgXgXgXgXgXgXgXgXgXgXgXgX",
"gXgXgXgXgXgXgXgXgXgXgXgXgXgXgXgXgXgXgXgXgXgXgXgX+XJ.=.gXgXgXgXgXgXgXgXgXgXgXgXgXgXgXgXgX-XsXgXgXgXgXgXgXgXgXgXgXgXgXgXgXgXgXgXgX",
"gXgXgXgXgXgXgXgXgXgXgXgXgXgXgXgXgXgXgXgXgXgXgXgX&.} E gXgXgXgXgXgXgXgXgXgXgXgXgXgXgXgXgXgX'.gXgXgXgXgXgXgXgXgXgXgXgXgXgXgXgXgXgX"
};
