/* XPM */
static char *_eacda4943bf4517e3adf2c2784b3ca4BHNXKiV5Vh6yzzEz[] = {
/* columns rows colors chars-per-pixel */
"64 64 131 2 ",
"   c #030302",
".  c #0B0402",
"X  c #070803",
"o  c #0B0906",
"O  c #0C0608",
"+  c #0B0A0A",
"@  c #130203",
"#  c #1A0304",
"$  c #130B05",
"%  c #1F0907",
"&  c #140409",
"*  c #1F0308",
"=  c #110B0B",
"-  c #1A090B",
";  c #0F100C",
":  c #11120F",
">  c #151515",
",  c #171815",
"<  c #181916",
"1  c #1C1C1C",
"2  c #240405",
"3  c #290306",
"4  c #230509",
"5  c #2C010B",
"6  c #27090D",
"7  c #2A0A0C",
"8  c #36030E",
"9  c #2E0511",
"0  c #270811",
"q  c #2F0F10",
"w  c #340714",
"e  c #3F0514",
"r  c #340D13",
"t  c #3C0B15",
"y  c #3B1214",
"u  c #3D1018",
"i  c #1F201C",
"p  c #22221E",
"a  c #242423",
"s  c #282626",
"d  c #282826",
"f  c #292925",
"g  c #282828",
"h  c gray16",
"j  c #2A2A28",
"k  c #2B2B29",
"l  c #2A2A2A",
"z  c gray17",
"x  c #2C2D2A",
"c  c #2D2E2B",
"v  c #2C2C2C",
"b  c #2D2D2D",
"n  c #2F2F2D",
"m  c #2F2F2F",
"M  c #2F2D2D",
"N  c #2C2B2A",
"B  c #302E2F",
"V  c #30302E",
"C  c #31312F",
"Z  c #312F30",
"A  c gray19",
"S  c #313131",
"D  c #323232",
"F  c gray20",
"G  c #353233",
"H  c #343434",
"J  c gray21",
"K  c #373737",
"L  c #353333",
"P  c #383637",
"I  c #393937",
"U  c #393738",
"Y  c gray22",
"T  c #393939",
"R  c #3A3A3A",
"E  c gray23",
"W  c gray24",
"Q  c #3E3E3E",
"!  c #3F3F3F",
"~  c #3D3D3D",
"^  c #430717",
"/  c #400D13",
"(  c #450C16",
")  c #480B14",
"_  c #4E0814",
"`  c #4A0A15",
"'  c #450F1D",
"]  c #490B19",
"[  c #4D0818",
"{  c #4E0C1C",
"}  c #540D1E",
"|  c #42111B",
" . c #4C131D",
".. c #50131C",
"X. c #531720",
"o. c #521722",
"O. c #631527",
"+. c #601928",
"@. c #601E2B",
"#. c #641E2A",
"$. c #651F2D",
"%. c #641A2C",
"&. c #6A1F33",
"*. c #7E1E38",
"=. c #612C30",
"-. c #682930",
";. c #7C2034",
":. c #722639",
">. c #782339",
",. c gray25",
"<. c #414141",
"1. c gray26",
"2. c #444444",
"3. c #444444",
"4. c #4B4B4B",
"5. c #505050",
"6. c #84233B",
"7. c #8A293E",
"8. c #902540",
"9. c #823042",
"0. c #863241",
"q. c #873A47",
"w. c #873449",
"e. c #8E3449",
"r. c #933345",
"t. c #9F3A51",
"y. c #A3394F",
"u. c #A43755",
"i. c #A53B53",
"p. c #A13B54",
"a. c #B03A59",
/* pixels */
"D D D D D D D D D D D m m m m m x x         + 1 j a a a j j j j j j j j a a a a a a a a a a a a 1 1 1 1 1 1 1 1 < < < < < < , , ",
"D D D D D D D D D D D m m m m m x x     X     + a a j j j j j j j j j a a a a a a a a a a a a a 1 1 1 1 1 1 1 1 < < < < < < , , ",
"D D D D D D D D D D D D m m m m x x     o       + a x j j j j j j j j a a a a a a a a a a a a a 1 1 1 1 1 1 1 1 < < < < < < < , ",
"D D D D D D D D D D D D m m m m x x           X   < j d j j j j j j j a a a a a a a a a a a a a 1 1 1 1 1 1 1 1 < < < < < < < < ",
"D D D D D D D D D D D D C C C C x x X X             < j m m j j j j j j a a a a a a a a a a a a a a a a 1 1 1 1 1 1 1 1 < 1 1 1 ",
"D D D D D D D D D D D D C C C C x x X X             o < j z j j j j j j a a a a a a a a a a a a a a a a 1 1 1 1 1 1 1 1 < 1 1 1 ",
"H H H H D D D D D D D D C C C C x x X X             X + < a a a j j j j a a a a a a a a a a a a a a a a 1 1 1 1 1 1 1 1 < < < 1 ",
"H H H H D D D D D D D D C C C C C B X X             X o + > a a j j j j a a a a a a a a a a a a a a a a 1 1 1 1 1 1 1 1 < < < < ",
"H H H H H H H D D D D D D D D D m m X X X X X                   1 < < < a a a a a a a a a a a a a a a a 1 1 1 1 1 1 1 1 < < < < ",
"H H H H H H H H D D D D D D D D m m X X X X X                           + > 1 a a a a a a a a a a a a a 1 1 1 1 1 1 1 1 < < < < ",
"Y Y Y H Y H H H H D D D D D D D z z     X X X                               X + + > 1 1 a a a a a a a a 1 1 1 1 1 1 1 1 < < < < ",
"Y Y Y H Y H H H H D D D D D D D g g     X X X                       X X X X X X   X + > < 1 a a a a a a 1 1 1 1 1 1 1 1 < < < < ",
"Y Y Y Y H Y H H H H H H H H D D D ,   +                                 X X X             X > < 1 a a a 1 1 1 1 1 1 1 1 1 1 1 < ",
"Y Y Y Y Y Y H H H H H H H H D D D ,   +                                 X X X                 X + > < 1 a 1 < > > > > > > > > > ",
"Y Y Y Y Y Y Y H H H H H H H H D D >   +                                 X X X           X       X X X X + X             X   + > ",
"Y Y Y Y Y Y Y H H H H H H H D D D >   X                                 X X X               X X X                           + 1 ",
"Y W W Y Y Y Y Y Y K Y Y H H H H a +                                                                                       X > 1 ",
"Y W W Y Y Y Y Y Y K Y Y H H H m > X                                                                                       + < 1 ",
"W W W Y W Y Y Y Y Y Y Y K K H 1 +                                                                           X           X > 1 1 ",
"W W W W W Y Y Y Y Y Y Y K K m + X                                                                           X X         + < 1 1 ",
"W W W W Y Y Y Y Y Y Y Y K D j X X X X                                                                     X X X X X   X , 1 1 1 ",
"W W W W Y W Y Y Y Y Y Y H m 1 X X X X X                                                                   X X X X X + > 1 1 1 1 ",
"W W W W W W W W W W Y Y F z > + X X X                                                                   X X X X   + < 1 1 1 1 1 ",
"W W W W W W W W W W Y Y D j + + X X . . .                                                               X X X X X > 1 a 1 1 1 1 ",
"W W ,.W W W W W W W W Y m 1 X + o . . . . . X                                                             X X X   , a i i 1 1 1 ",
"W W ,.W W W W W W W E Y m 1 X X X o @ # # # $ $ @ . . . .                                                       X < a i 1 1 1 1 ",
",.,.,.,.,.W W W W W W E m 1 X X X X . @ 2 7 7 2 * @ @ . . .                                               X     : p a 1 i i i i ",
",.,.,.,.,.W W W W W Y Y m < X X X o @ * y =.-.) 8 2 @ . .                                                 X     , a a 1 i i i i ",
",.,.,.,.,.,.,.,.W W Y Y m <     o & # 3 o.q.r.;.+.t * @                                                   X   : a a p p 1 1 1 1 ",
",.,.,.,.,.,.,.,.W W Y Y D 1     . & # 5 ..0.y.i.9.o.7 @     . .                                           X   : a a p p i 1 1 1 ",
"2.2.2.,.,.,.,.,.,.W Y H H a X X O = & 4 t #.7.t.e.@.r . .   . . . . . . . . @ . . . . .                 X X   : p a p p p p p p ",
"2.2.2.,.,.,.,.,.,.W W H H a + o O O $ - 3 / _ O.$. .6 @ . . . . . @ # @ 4 4 2 2 # @ @ .                 X X   : p p p p p p p p ",
"2.2.2.2.,.,.,.,.,.W W W G m + = O . . = & % 6 r 6 4 - @ . . . @ @ # 4 w 8 ] } [ e 5 * & .               X     1 a a a a a a a a ",
"2.2.2.2.,.,.,.,.,.W W ,.G B > = O O . O o $ $ $ $ @ @ . . . . . @ * 5 e %.>.6.*.&.' 6 & .               X     1 a a a a a a a a ",
"2.2.2.2.2.2.2.,.,.,.W ,.H D a + O O . O o o o $ o . . .     . . . # 9 ^ w.p.a.u.:.| 4 @ .               X     1 a a a a a a p p ",
"2.2.2.2.2.2.2.,.,.,.,.,.P G N O o o o o . . . o .               . & 0 t &.6.8.6.{ r # . .               X     1 a a a a p p p p ",
"2.2.2.2.2.2.2.2.,.,.,.,.E H Z 1 o o o o o o .                     O - 4 u ( ) ) t 3 @ .                 + o > a a a a a a a a p ",
"2.2.2.2.2.2.2.2.,.,.,.,.H Z N 1 . o o o . .                       o = - 4 2 3 3 3 @ . X X   X           X + < a a a a a a a a a ",
"2.2.2.2.2.2.2.2.,.,.,.,.W Y G N X X o o                           X O = @ @ @ @ @ @ . X X X X .           ; i a a a a a a a a a ",
"2.2.2.2.2.2.2.2.,.,.,.,.H G M s X X X o                           X o + o . . @ @ . o X X X X             > 1 i a a a a a a a a ",
"2.2.2.2.2.2.2.2.,.,.,.,.~ W H < o o o o               X       X   X o o . . . . . . . X X X X X X X X     ; a p f d d a d a a a ",
"2.2.2.2.2.2.2.2.,.,.,.,.Y Y j > X o o             + ;             X X X X X X X X X X X X X X X X X       ; a p d d d a d a a a ",
"2.2.2.2.2.2.2.2.,.,.,.,.I I a +   X X               > k             X X X X X X X X X X X X X X   X X X   ; p p d d d a d a a a ",
"2.2.2.2.2.2.2.2.,.,.,.,.H m 1 +   X                                 X X X X X X X X                 X X   ; p p f f d f d a a a ",
"4.4.2.2.2.2.2.2.! ! W W I H < o X X                 X X   X X X X X X X X X X                             o p d d d d f a a a a ",
"4.4.2.2.2.2.2.2.,.! ! W I x ; X X                   X X X X X X X X X X X X X                             X p d d d d f a a a a ",
"4.4.2.2.2.2.2.2.,.,.W W Y a     X               X X X X X X X X X X X X X X X X                           X i d d d d f a a a a ",
"4.4.2.2.2.2.2.2.,.,.W W I 1                     X X X X X X X X X o o o X X X X                           X i d d d d f a a a a ",
"4.4.2.2.2.2.2.2.,.,.W W D > X X                                         + X + X                             1 d d d d d a a a a ",
"4.4.2.2.2.2.2.2.,.,.W Y z + X X                                         X +   X                             1 d d d d d a a a a ",
"4.4.2.2.2.2.2.2.,.,.W E a X X X                                         X   X                               < d d d d a a a a a ",
"4.4.2.2.2.2.2.2.2.,.W Y 1     X                                                                             < d d d d a a a a a ",
"5.4.2.2.2.2.2.2.2.,.! E 1 X   X                                                                             X , j j d d a a a a ",
"5.4.2.2.2.2.2.2.2.,.! E 1 o   X                                                                               X a d d a a a a a ",
"5.4.2.2.2.2.2.2.2.,.! E 1 o   X                                                                                 > a a a a a a a ",
"5.4.2.2.2.2.2.2.2.,.! E 1 X   X                                                                                   1 p p a a a a ",
"4.4.4.4.2.2.2.2.2.2.,.W > X   X                                                                                   o , i d a a a ",
"4.4.4.4.2.2.2.2.2.2.2.,.> X                                                                                         o , p a a a ",
"4.4.4.4.4.2.2.2.2.2.2.,.> X                                                                                           o > 1 a a ",
"4.4.4.4.4.2.2.2.2.2.2.2.> X                                                                                             X > p d ",
"5.5.5.4.4.2.4.4.2.2.2.Y + X   X                                                               X                     X X o : i d ",
"5.5.5.5.4.4.4.4.2.2.2.Y + X   X                                                               X                     X X X + > a ",
"5.5.5.5.4.4.4.4.2.2.2.Y X X X X                                                               X   X X X           X X X     + < ",
"5.5.5.5.4.4.4.4.2.2.2.Y X X X X                                                               X   X X X           X X X     X ; "
};
